!!!!SEGMENT: pl-wtm--r-910-m--001_moniuszko-stanislaw--litania-ostrobramska-kyrie.krn
!!!cenid: 18xx:2543
!!!COM: Moniuszko, Stanisław
!!!COM-rismid: pe30008351
!!!CDT: 1819/05/05-1872/06/04
!!!CNT: Polish
!!!OPR: Litania Ostrobramska
!!!OTL: Kyrie
!!!OMV: 001
!!!PDT: 1855
!!!AGN: Sacred; Mass
!!!SMS-siglum: PL-Wtm
!!!SMS-shelfmark: R 910/M
!!!SMS-shelfwork: 001-001 M
!!!SMS-variant:
!!!SMS-altvar:
!!!NIFC-rismid: 1001091649
!!!URL-scan: http://repozytorium.nifc.pl/skany/pl-wtm-nut--r910m
!!!ONB-nifc: UWAGA: części Litanii: 1. Kyrie, 2. Christe audi nos, 3. Ora pro nobis, 4. Agnus Dei
**kern	**kern	**dynam	**kern	**text	**dynam	**kern	**text	**dynam	**kern	**text	**dynam	**kern	**text	**dynam
*part6	*part5	*part5	*part4	*part4	*part4	*part3	*part3	*part3	*part2	*part2	*part2	*part1	*part1	*part1
*staff6	*staff5	*	*staff4	*staff4	*	*staff3	*staff3	*	*staff2	*staff2	*	*staff1	*staff1	*
*Iempty	*Iforte	*	*Iempty	*	*	*Itenor	*	*	*Ialto	*	*	*Isoprn	*	*
*	*I"Fortepian.	*	*I"Bas.	*	*	*I"Tenor.	*	*	*I"Alt.	*	*	*I"Sopran.	*	*
*	*I'fort.	*	*I'B	*	*	*I'T	*	*	*I'A	*	*	*I'S	*	*
*clefF4	*clefG2	*	*clefF4	*	*	*clefG2	*	*	*clefG2	*	*	*clefG2	*	*
*k[]	*k[]	*	*k[]	*	*	*k[]	*	*	*k[]	*	*	*k[]	*	*
*C:	*C:	*	*C:	*	*	*C:	*	*	*C:	*	*	*C:	*	*
*M4/4	*M4/4	*	*M4/4	*	*	*M4/4	*	*	*M4/4	*	*	*M4/4	*	*
*met(c)	*met(c)	*	*met(c)	*	*	*met(c)	*	*	*met(c)	*	*	*met(c)	*	*
*MM50	*MM50	*	*MM50	*	*	*MM50	*	*	*MM50	*	*	*MM50	*	*
=1	=1	=1	=1	=1	=1	=1	=1	=1	=1	=1	=1	=1	=1	=1
*2\right	*	*	*	*	*	*	*	*	*	*	*	*	*	*
!	!	!	!	!	!	!	!	!	!	!	!	!LO:TX:a:t=Litania Ostrobramska. /&colon;Czwarta&colon;/\nr. 1855. St&colon; Moniuszki.	!	!
!	!	!	!	!	!	!	!	!	!	!	!	!LO:TX:a:t=Moderato.	!	!
8C/L 8CC/	1r	pp	1r	.	.	1r	.	.	1r	.	.	1r	.	.
8C/ 8CC/	.	.	.	.	.	.	.	.	.	.	.	.	.	.
8C/ 8CC/	.	.	.	.	.	.	.	.	.	.	.	.	.	.
8C/J 8CC/	.	.	.	.	.	.	.	.	.	.	.	.	.	.
*tremolo	*	*	*	*	*	*	*	*	*	*	*	*	*	*
!LO:TX:a:t=P:problem:4 kropki	!	!	!	!	!	!	!	!	!	!	!	!	!	!
8C'/L 8CC'/	.	.	.	.	.	.	.	.	.	.	.	.	.	.
8C/ 8CC/	.	.	.	.	.	.	.	.	.	.	.	.	.	.
8C/ 8CC/	.	.	.	.	.	.	.	.	.	.	.	.	.	.
8C/J 8CC/	.	.	.	.	.	.	.	.	.	.	.	.	.	.
*Xtremolo	*	*	*	*	*	*	*	*	*	*	*	*	*	*
=2	=2	=2	=2	=2	=2	=2	=2	=2	=2	=2	=2	=2	=2	=2
*	*2\right	*	*2\right	*	*	*8ba	*	*	*	*	*	*	*	*
*^	*	*	*	*	*	*	*	*	*	*	*	*	*	*
!	!	!	!	!	!	!LO:DY:a:rj	!LO:TX:t=P:problem:partia tenoru zapisana w kluczu wiolinowym	!	!LO:DY:a:rj	!	!	!	!	!	!
8G/L 8E/	8C\L 8CC\	(4..c/	.	4..E\ 4..C\	Ky-	pp	4..c\ 4..G\	Ky-	pp	1r	.	.	1r	.	.
8G/ 8E/	8C\ 8CC\	.	.	.	.	.	.	.	.	.	.	.	.	.	.
8G/ 8E/	8C\ 8CC\	.	.	.	.	.	.	.	.	.	.	.	.	.	.
8G/J 8E/	8C\J 8CC\	.	.	.	.	.	.	.	.	.	.	.	.	.	.
.	.	16B/	.	16E\ 16C\	-ri-	.	16B\ 16G\	-ri-	.	.	.	.	.	.	.
!	!	!	!	!LO:TX:a:t=P:problem:comma.color=blue	!	!	!LO:TX:a:t=P:problem:comma.color=blue	!	!	!	!	!	!	!	!
8G/L 8E/	8C\L 8CC\	2B/)	.	4.E\ 4.C\	-e,	.	4.B\ 4.G\	-e,	.	.	.	.	.	.	.
8G/ 8E/	8C\ 8CC\	.	.	.	.	.	.	.	.	.	.	.	.	.	.
8G/ 8E/	8C\ 8CC\	.	.	.	.	.	.	.	.	.	.	.	.	.	.
8G/J 8E/	8C\J 8CC\	.	.	8r	.	.	8r	.	.	.	.	.	.	.	.
=3	=3	=3	=3	=3	=3	=3	=3	=3	=3	=3	=3	=3	=3	=3	=3
8G/L 8E/	8C\L 8CC\	(4..B/	.	4..E\ 4..C\	Ky-	.	4..B\ 4..G\	Ky-	.	1r	.	.	1r	.	.
8G/ 8E/	8C\ 8CC\	.	.	.	.	.	.	.	.	.	.	.	.	.	.
8G/ 8E/	8C\ 8CC\	.	.	.	.	.	.	.	.	.	.	.	.	.	.
8E/J	8C\J 8CC\	.	.	.	.	.	.	.	.	.	.	.	.	.	.
.	.	16A/)	.	16F\ 16C\	-ri-	.	16A\	-ri-	.	.	.	.	.	.	.
!	!	!	!	!LO:TX:a:t=P:problem:comma.color=blue	!	!	!LO:TX:a:t=P:problem:comma.color=blue	!	!	!	!	!	!	!	!
8F/L	8C\L 8CC\	2A/	.	4.F\ 4.C\	-e,	.	4.A\	-e,	.	.	.	.	.	.	.
8F/	8C\ 8CC\	.	.	.	.	.	.	.	.	.	.	.	.	.	.
8F/	8C\ 8CC\	.	.	.	.	.	.	.	.	.	.	.	.	.	.
8F/J	8C\J 8CC\	.	.	8r	.	.	8r	.	.	.	.	.	.	.	.
=4	=4	=4	=4	=4	=4	=4	=4	=4	=4	=4	=4	=4	=4	=4	=4
*	*	*	*	*^	*^	*	*	*	*	*	*	*	*	*	*
8F/L	8C\L 8CC\	(>4A/	.	4A/	[1C\	Ky-	Ky-	.	4A/ 4F/	Ky-	.	1r	.	.	1r	.	.
!	!	!	!LO:HP:color=blue	!	!	!	!	!	!	!	!	!	!	!	!	!	!
8F/	8C\ 8CC\	.	<	.	.	.	.	.	.	.	.	.	.	.	.	.	.
!	!	!	!	!	!	!	!	!	!	!	!LO:HP:b:color=blue	!	!	!	!	!	!
8F/	8C\ 8CC\	4B/ 4G/	.	4G/	.	-ri-	.	.	4B/ 4G/	-ri-	<	.	.	.	.	.	.
8F/J	8C\J 8CC\	.	.	.	.	.	.	.	.	.	.	.	.	.	.	.	.
8F/L	8C\L 8CC\	4c/ 4A/	.	4F/	.	-e	.	.	4c/ 4A/	-e	.	.	.	.	.	.	.
8F/	8C\ 8CC\	.	.	.	.	.	.	.	.	.	.	.	.	.	.	.	.
8F/	8C\ 8CC\	4d/ 4B/	.	4F/	.	e-	.	.	4d/ 4B/	e-	[	.	.	.	.	.	.
8F/J	8C\J 8CC\	.	[[	.	.	.	.	.	.	.	.	.	.	.	.	.	.
!!LO:LB:g=original
=5	=5	=5	=5	=5	=5	=5	=5	=5	=5	=5	=5	=5	=5	=5	=5	=5	=5
!	!	!	!LO:HP:color=blue	!	!	!	!	!	!	!	!LO:HP:b:color=blue	!	!	!	!	!	!
8E/L	8C\L 8CC\	2e/ 2c/	>	4..E/	4..C\]	le-	.	.	4..e\ 4..c\	-le-	>	1r	.	.	1r	.	.
8G/ 8E/	8C\ 8CC\	.	.	.	.	.	.	.	.	.	.	.	.	.	.	.	.
8G/ 8E/	8C\ 8CC\	.	.	.	.	.	.	.	.	.	.	.	.	.	.	.	.
8G/J 8E/	8C\J 8CC\	.	.	.	.	.	.	.	.	.	.	.	.	.	.	.	.
.	.	.	.	16G/	16C\	-i-	-rie	.	16c\	-i-	.	.	.	.	.	.	.
!	!	!	!	!	!LO:TX:a:t=P:problem:comma.color=blue	!	!	!	!LO:TX:a:t=P:problem:comma.color=blue	!	!	!	!	!	!	!	!
8G/L 8E/	8C\L 8CC\	4c/)	]	4c/	4C\	-son,	.	.	4c\	-son,	.	.	.	.	.	.	.
8G/ 8E/	8C\ 8CC\	.	.	.	.	.	.	.	.	.	.	.	.	.	.	.	.
8G/ 8E/	8C\ 8CC\	4e/ 4c/	.	4r	4r	.	.	.	4r	.	]	.	.	.	.	.	.
8G/J 8E/	8C\J 8CC\	.	.	.	.	.	.	.	.	.	.	.	.	.	.	.	.
*	*	*	*	*	*	*v	*v	*	*	*	*	*	*	*	*	*	*
=6	=6	=6	=6	=6	=6	=6	=6	=6	=6	=6	=6	=6	=6	=6	=6	=6
*	*	*	*	*	*	*	*	*^	*	*	*	*	*	*	*	*
!	!	!	!LO:DY:color=blue:rj	!	!	!	!	!	!	!	!LO:DY:a:rj:color=blue	!	!	!	!	!	!
8d/L 8B/	8C\L 8CC\	(>4..g/	p	4..B/	4..C\	Ky-	.	4..g/	4..d\	Ky-	p	1r	.	.	1r	.	.
8d/ 8B/	8C\ 8CC\	.	.	.	.	.	.	.	.	.	.	.	.	.	.	.	.
8d/ 8B/	8C\ 8CC\	.	.	.	.	.	.	.	.	.	.	.	.	.	.	.	.
8d/J 8B/	8C\J 8CC\	.	.	.	.	.	.	.	.	.	.	.	.	.	.	.	.
.	.	16d/	.	16B/	16C\	-ri-	.	16d/	16d\	-ri-	.	.	.	.	.	.	.
!	!	!	!LO:HP:color=blue	!LO:TX:a:t=P:problem:comma.color=blue	!	!	!	!LO:TX:a:t=P:problem:comma.color=blue	!	!	!LO:HP:a:color=blue	!	!	!	!	!	!
8c/L 8A/	8C\L 8CC\	2f/)	>	4.A/	4.C\	-e,	.	4.f/	4.c\	-e,	>	.	.	.	.	.	.
8c/ 8A/	8C\ 8CC\	.	.	.	.	.	.	.	.	.	.	.	.	.	.	.	.
8c/ 8A/	8C\ 8CC\	.	.	.	.	.	.	.	.	.	.	.	.	.	.	.	.
8c/J 8A/	8C\J 8CC\	.	.	8r	8r	.	.	8r	8r	.	.	.	.	.	.	.	.
=7	=7	=7	=7	=7	=7	=7	=7	=7	=7	=7	=7	=7	=7	=7	=7	=7	=7
8c/L 8G/	8C\L 8CC\	(>4..e/	.	4..G/	4..C\	Ky-	.	4..e/	4..c\	Ky-	.	1r	.	.	1r	.	.
8c/ 8G/	8C\ 8CC\	.	.	.	.	.	.	.	.	.	.	.	.	.	.	.	.
8c/ 8G/	8C\ 8CC\	.	.	.	.	.	.	.	.	.	.	.	.	.	.	.	.
8G/J	8C\J 8CC\	.	.	.	.	.	.	.	.	.	.	.	.	.	.	.	.
.	.	16d/)	.	16F/	16C\	-ri-	.	16d/	16B\	-ri-	]	.	.	.	.	.	.
!	!	!	!	!LO:TX:a:t=P:problem:comma.color=blue	!	!	!	!LO:TX:a:t=P:problem:comma.color=blue	!	!	!	!	!	!	!	!	!
8G/L 8F/	8C\L 8CC\	2d/	]	4.F/	4.C\	-e,	.	4.d/	4.B\	-e,	.	.	.	.	.	.	.
8G/ 8F/	8C\ 8CC\	.	.	.	.	.	.	.	.	.	.	.	.	.	.	.	.
8G/ 8F/	8C\ 8CC\	.	.	.	.	.	.	.	.	.	.	.	.	.	.	.	.
8G/J 8F/	8C\J 8CC\	.	.	8r	8r	.	.	8r	8r	.	.	.	.	.	.	.	.
=8	=8	=8	=8	=8	=8	=8	=8	=8	=8	=8	=8	=8	=8	=8	=8	=8	=8
*	*	*^	*	*	*	*	*	*	*	*	*	*	*	*	*	*	*
*	*	*	*	*	*	*	*^	*	*	*	*	*	*	*	*	*	*	*
!	!	!	!	!	!	!	!	!	!	!	!	!	!LO:DY:a:rj:color=blue	!	!	!	!	!	!
8C\L	4CC\	(>4c/	8G</L 8E</	pp	4E/	4C\	.	Ky-	.	4c/	4G\	Ky-	pp	1r	.	.	1r	.	.
8C\J	.	.	8G</J 8E</	.	.	.	.	.	.	.	.	.	.	.	.	.	.	.	.
8D\L	4DD\	4B/	8G</L	.	4D/@	4D\	.	-ri-	.	4B/	4G\	-ri-	.	.	.	.	.	.	.
8D\J	.	.	8G</J	.	.	.	.	.	.	.	.	.	.	.	.	.	.	.	.
8E\L	4EE\	2A/	8G</L 8C</	.	4C/	4E\	.	-e	.	4A/	4G\	-e	.	.	.	.	.	.	.
8E\J	.	.	8G</J 8C</	.	.	.	.	.	.	.	.	.	.	.	.	.	.	.	.
*tremolo	*	*	*tremolo	*	*	*	*	*	*	*	*	*	*	*	*	*	*	*	*
!	!	!	!LO:TX:a:t=P:problem:2 kropki	!	!	!	!	!	!	!	!	!	!	!	!	!	!	!	!
8D\L	4FF#X\	.	8C<'/L	.	4C/	4F#X\	e-	e-	.	4D/	4D\	e-	.	.	.	.	.	.	.
8D\J	.	.	8C</J	.	.	.	.	.	.	.	.	.	.	.	.	.	.	.	.
*Xtremolo	*	*	*Xtremolo	*	*	*	*	*	*	*	*	*	*	*	*	*	*	*	*
*	*	*v	*v	*	*	*	*	*	*	*	*	*	*	*	*	*	*	*	*
*v	*v	*	*	*	*	*	*	*	*	*	*	*	*	*	*	*	*	*
=9	=9	=9	=9	=9	=9	=9	=9	=9	=9	=9	=9	=9	=9	=9	=9	=9	=9
8GG\L 8GGG\	(4.D</ 4.BB</)	.	(8BB/L	(2.G\	-le-	-lei-	.	2.G/	2.G\	-lei-	.	1r	.	.	1r	.	.
!	!	!LO:HP:color=blue	!	!	!	!	!	!	!	!	!	!	!	!	!	!	!
8GG\ 8GGG\	.	<	8D/J)	.	.	.	.	.	.	.	.	.	.	.	.	.	.
8GG\ 8GGG\	.	.	2G/	.	-i-	.	.	.	.	.	.	.	.	.	.	.	.
8GG\J 8GGG\	8E</ 8C</	.	.	.	.	.	.	.	.	.	.	.	.	.	.	.	.
8GG\L 8GGG\	8F</L 8D</	.	.	.	.	.	.	.	.	.	.	.	.	.	.	.	.
8GG\ 8GGG\	8G</ 8E</	.	.	.	.	.	.	.	.	.	.	.	.	.	.	.	.
!	!	!	!	!LO:TX:a:t=P:problem:comma.color=blue	!	!	!	!LO:TX:a:t=P:problem:comma.color=blue	!	!	!	!	!	!	!	!	!
8GG\ 8GGG\	8A</ 8F</	.	8G/	8GG\)	-son	-son,	.	8G/	8G\	-son,	.	.	.	.	.	.	.
8GG\J 8GGG\	8B</J 8D</)	[[	8r	8ryy	.	.	.	8r	8r	.	.	.	.	.	.	.	.
*	*	*	*	*	*v	*v	*	*	*	*	*	*	*	*	*	*	*
*	*	*	*v	*v	*	*	*	*	*	*	*	*	*	*	*	*
*	*	*	*	*	*	*v	*v	*	*	*	*	*	*	*	*
!!LO:PB:g=original
=10	=10	=10	=10	=10	=10	=10	=10	=10	=10	=10	=10	=10	=10	=10
*^	*	*	*	*	*	*	*	*	*	*	*	*	*	*
!	!	!	!LO:DY:color=blue:rj	!	!	!	!	!	!	!	!	!LO:DY:a:rj	!	!	!LO:DY:a
8c/L	1C\	(>4..cc/ 4..e/	p	1r	.	.	1r	.	.	4..c/	Ky-	p	4..cc\ 4..e\	Ky-	p
8c/	.	.	.	.	.	.	.	.	.	.	.	.	.	.	.
8c/	.	.	.	.	.	.	.	.	.	.	.	.	.	.	.
8c/J	.	.	.	.	.	.	.	.	.	.	.	.	.	.	.
.	.	16b/ 16g/ 16e/	.	.	.	.	.	.	.	16c/	-ri-	.	16b\ 16g\	-ri-	.
!	!	!	!	!	!	!	!	!	!	!LO:TX:a:t=P:problem:comma.color=blue	!	!	!LO:TX:a:t=P:problem:comma.color=blue	!	!
*tremolo	*	*	*	*	*	*	*	*	*	*	*	*	*	*	*
!LO:TX:a:t=P:problem:4 kropki	!	!	!	!	!	!	!	!	!	!	!	!	!	!	!
8c'</L	.	2b/ 2g/ 2e/)	.	.	.	.	.	.	.	2c/	-e,	.	4.b\ 4.g\	-e,	.
8c/	.	.	.	.	.	.	.	.	.	.	.	.	.	.	.
8c/	.	.	.	.	.	.	.	.	.	.	.	.	.	.	.
8c/J	.	.	.	.	.	.	.	.	.	.	.	.	8r	.	.
=11	=11	=11	=11	=11	=11	=11	=11	=11	=11	=11	=11	=11	=11	=11	=11
!LO:TX:a:t=P:problem:4 kropki	!	!	!	!	!	!	!	!	!	!	!	!	!	!	!
8c'</L	1C\	(>4..b/ 4..g/	.	1r	.	.	1r	.	.	4..c/	Ky-	.	4..b/ 4..g/	Ky-	.
8c/	.	.	.	.	.	.	.	.	.	.	.	.	.	.	.
8c/	.	.	.	.	.	.	.	.	.	.	.	.	.	.	.
8c/J	.	.	.	.	.	.	.	.	.	.	.	.	.	.	.
.	.	16a/ 16f/	.	.	.	.	.	.	.	16c/	-ri-	.	16a/ 16f/	-ri-	.
!LO:TX:a:t=P:problem:4 kropki	!	!	!	!	!	!	!	!	!	!LO:TX:a:t=P:problem:comma.color=blue	!	!	!LO:TX:a:t=P:problem:comma.color=blue	!	!
8c'</L	.	2a/ 2f/)	.	.	.	.	.	.	.	2c/	-e,	.	4a/ 4f/	-e,	.
8c/	.	.	.	.	.	.	.	.	.	.	.	.	.	.	.
8c/	.	.	.	.	.	.	.	.	.	.	.	.	4r	.	.
8c/J	.	.	.	.	.	.	.	.	.	.	.	.	.	.	.
=12	=12	=12	=12	=12	=12	=12	=12	=12	=12	=12	=12	=12	=12	=12	=12
*	*	*^	*	*	*	*	*	*	*	*	*	*	*	*	*
!LO:TX:a:t=P:problem:4 kropki	!	!	!	!LO:HP:color=blue	!	!	!	!	!	!	!	!	!LO:HP:a:color=red	!	!	!LO:HP:b:color=blue
8c'</L	1C\	(4a/	1f\	<	1r	.	.	1r	.	.	2.c/	Ky-	<[[	4a/ 4f/	Ky-	<
8c/	.	.	.	.	.	.	.	.	.	.	.	.	.	.	.	.
8c/	.	4b/ 4g/	.	.	.	.	.	.	.	.	.	.	.	4b/ 4g/	-ri-	.
8c/J	.	.	.	.	.	.	.	.	.	.	.	.	.	.	.	.
!LO:TX:a:t=P:problem:4 kropki	!	!	!	!	!	!	!	!	!	!	!	!	!	!	!	!
8c'</L	.	4cc/ 4a/	.	.	.	.	.	.	.	.	.	.	.	4cc/ 4a/	-e	.
8c/	.	.	.	.	.	.	.	.	.	.	.	.	.	.	.	.
8c/	.	4dd/ 4b/	.	[[	.	.	.	.	.	.	4f/	-ri-	.	4dd/ 4b/	e-	[[
8c/J	.	.	.	.	.	.	.	.	.	.	.	.	.	.	.	.
=13	=13	=13	=13	=13	=13	=13	=13	=13	=13	=13	=13	=13	=13	=13	=13	=13
*	*	*	*^	*	*	*	*	*	*	*	*	*	*	*^	*^	*
*	*	*	*	*	*	*	*	*	*	*	*	*	*	*	*	*2\right	*	*	*
!LO:TX:a:t=P:problem:4 kropki	!	!	!	!	!LO:HP:color=blue	!	!	!	!	!	!	!	!	!LO:HP:a:color=red	!	!	!	!	!LO:HP:b:color=red
8c'</L	1C\	4.ee/ 4.cc/	1e\	2ryy	>	1r	.	.	1r	.	.	2.e/	-e	>	4.ee\ 4.cc\	2ryy	-le-	.	>
8c/	.	.	.	.	.	.	.	.	.	.	.	.	.	.	.	.	.	.	.
8c/	.	.	.	.	.	.	.	.	.	.	.	.	.	.	.	.	.	.	.
8c/J	.	8cc/ 8g/	.	.	.	.	.	.	.	.	.	.	.	.	8cc\ 8g\	.	-i-	.	.
!LO:TX:a:t=P:problem:4 kropki	!	!	!	!	!	!	!	!	!	!	!	!	!	!	!LO:TX:a:t=P:problem:comma.color=blue	!	!	!	!
8c'</L	.	4cc/	.	2g\	.	.	.	.	.	.	.	.	.	.	4cc/	4g\	-son,	.	]
8c/	.	.	.	.	.	.	.	.	.	.	.	.	.	.	.	.	.	.	.
*	*	*	*	*	*	*	*	*	*	*	*	*	*	*	*	*	*above	*	*
!	!	!	!	!	!	!	!	!	!	!	!	!	!	!LO:HP:a:color=red	!	!	!	!	!LO:HP:a:color=blue
8c/	.	4ee/)	.	.	]	.	.	.	.	.	.	4e/	e-	]<[[	4ee/	4r	e-	.	<
8c/J	.	.	.	.	.	.	.	.	.	.	.	.	.	.	.	.	.	.	.
*	*	*	*v	*v	*	*	*	*	*	*	*	*	*	*	*	*	*	*	*
=14	=14	=14	=14	=14	=14	=14	=14	=14	=14	=14	=14	=14	=14	=14	=14	=14	=14	=14
*	*	*	*tremolo	*	*	*	*	*	*	*	*	*	*	*	*	*	*	*
!	!	!	!LO:TX:a:t=P:problem:4 kropki	!LO:DY:rj:color=blue	!	!	!	!	!	!	!	!	!LO:DY:a:color=red	!	!	!	!	!LO:DY:a:color=blue
8A/L	(4.C#X\	(>4.ee/	8e'>\L	mp	1r	.	.	1r	.	.	4..e/	-le-	mp	4..gg/	4..a\	-le-	Ky-	[ mp
8A/	.	.	8e\	.	.	.	.	.	.	.	.	.	.	.	.	.	.	.
8A/	.	.	8e\	.	.	.	.	.	.	.	.	.	.	.	.	.	.	.
8A/J	8E\	8a/	8e\J	.	.	.	.	.	.	.	.	.	.	.	.	.	.	.
.	.	.	.	.	.	.	.	.	.	.	16c#X/	-i-	.	16ee/	16a\	-i-	-ri-	.
!	!	!	!	!	!	!	!	!	!	!	!LO:TX:a:t=P:problem:comma.color=blue	!	!	!	!	!	!	!
8A/L	4D\	2dd/)	8f\L	.	.	.	.	.	.	.	4.d/	-son,	.	4.ff/	2a\	-son,	-e,	.
*	*	*	*	*	*	*	*	*	*	*	*	*	*	*	*	*below	*	*
8A/	.	.	8f\	.	.	.	.	.	.	.	.	.	.	.	.	.	.	.
!	!	!	!	!LO:HP:color=blue	!	!	!	!	!	!	!	!	!	!	!	!	!	!
8A/	4Cn\)	.	8f\	>	.	.	.	.	.	.	.	.	.	.	.	.	.	.
!	!	!	!	!	!	!	!	!	!	!	!	!	!LO:HP:a:color=red	!	!	!	!	!LO:HP:a:color=blue
8A/J	.	.	8f\J	.	.	.	.	.	.	.	8r	.	>	8r	.	.	.	>
*	*	*	*	*	*	*	*	*	*	*	*	*	*	*	*	*v	*v	*
=15	=15	=15	=15	=15	=15	=15	=15	=15	=15	=15	=15	=15	=15	=15	=15	=15	=15
8G/L	(4.BB\	4.dd/	8f\L	.	1r	.	.	1r	.	.	4..d/	Ky-	.	4..ff/	4..g\	Ky-	.
8G/	.	.	8f\	.	.	.	.	.	.	.	.	.	.	.	.	.	.
8G/	.	.	8f\	.	.	.	.	.	.	.	.	.	.	.	.	.	.
8G/J	8D\	8g/	8f\J	.	.	.	.	.	.	.	.	.	.	.	.	.	.
.	.	.	.	.	.	.	.	.	.	.	16B/	-ri-	.	16dd/	16g\	-ri-	.
8G/L	4C\	2cc/	8e\L	]	.	.	.	.	.	.	4c/	-e	]	4ee/	4g\	-e	.
8G/	.	.	8e\	.	.	.	.	.	.	.	.	.	.	.	.	.	.
8G/	4E\)	.	8e\	.	.	.	.	.	.	.	4e/	e-	.	4cc/	4g\	e-	]
8G/J	.	.	8e\J	.	.	.	.	.	.	.	.	.	.	.	.	.	.
*Xtremolo	*	*	*Xtremolo	*	*	*	*	*	*	*	*	*	*	*	*	*	*
*	*	*v	*v	*	*	*	*	*	*	*	*	*	*	*	*	*	*
!!LO:LB:g=original
=16	=16	=16	=16	=16	=16	=16	=16	=16	=16	=16	=16	=16	=16	=16	=16	=16
!	!	!	!LO:DY:rj:color=blue	!	!	!	!	!	!	!	!	!	!	!	!	!LO:DY:a:color=blue
8G/	1GG\	(>4g/ 4e/	p	1r	.	.	1r	.	.	4e/	-le-	.	4g/	4g\	-le-	p
4G/	.	.	.	.	.	.	.	.	.	.	.	.	.	.	.	.
!	!	!	!LO:HP:color=blue	!	!	!	!	!	!	!	!	!	!	!	!	!LO:HP:a:color=blue
.	.	4a/ 4f/	<	.	.	.	.	.	.	4f/	-i-	.	4a/	4f\	-i-	<
4G/	.	.	.	.	.	.	.	.	.	.	.	.	.	.	.	.
!	!	!	!	!	!	!	!	!	!	!LO:TX:a:t=P:problem:comma.color=blue	!	!	!	!	!	!
.	.	4b/ 4g/ 4d/	.	.	.	.	.	.	.	4d/	-son,	.	4b/	4g\	-son,	.
4G/	.	.	.	.	.	.	.	.	.	.	.	.	.	.	.	.
.	.	4cc/ 4g/ 4e/	.	.	.	.	.	.	.	4e/	e-	.	4cc/	4g\	e-	[[
8G/	.	.	[	.	.	.	.	.	.	.	.	.	.	.	.	.
=17	=17	=17	=17	=17	=17	=17	=17	=17	=17	=17	=17	=17	=17	=17	=17	=17
*	*	*^	*	*	*	*	*	*	*	*	*	*	*	*	*	*
!	!LO:TX:t=P:problem:mixed beam	!	!	!	!	!	!	!	!	!	!	!	!	!	!	!	!LO:DY:a:color=blue
!	!	!	!	!LO:DY:color=blue	!	!	!	!	!	!	!	!	!	!	!	!	!LO:HP:a:color=blue
[2c/	8GG/L	2ee/	2.g\	mp	1r	.	.	1r	.	.	2g/	-lei-	.	2ee/	2g\	-lei-	mp>
.	8G\	.	.	.	.	.	.	.	.	.	.	.	.	.	.	.	.
!	!	!	!	!LO:HP:color=blue	!	!	!	!	!	!	!	!	!	!	!	!	!
.	8G\	.	.	>	.	.	.	.	.	.	.	.	.	.	.	.	.
.	8G\J	.	.	.	.	.	.	.	.	.	.	.	.	.	.	.	.
!	!	!	!	!	!	!	!	!	!	!	!LO:TX:a:t=P:problem:comma.color=blue	!	!	!	!	!	!
8c/L]	8G\L	8dd/)	.	.	.	.	.	.	.	.	4g/	-son,	.	4dd/	4b\	-son,	]]
8B/	8G\	8r	.	]	.	.	.	.	.	.	.	.	.	.	.	.	.
8A/	8A\	4g/|	4ryy	.	.	.	.	.	.	.	4r	.	.	4r	4ryy	.	.
8G/J	8G\J	.	.	.	.	.	.	.	.	.	.	.	.	.	.	.	.
*v	*v	*	*	*	*	*	*	*	*	*	*	*	*	*v	*v	*	*
=18	=18	=18	=18	=18	=18	=18	=18	=18	=18	=18	=18	=18	=18	=18	=18
!	!LO:TX:a:t=P:problem:pionowy łuk oznacza dźwięki, które powinny być grane prawą ręką	!	!LO:DY:color=blue	!	!	!	!	!	!LO:DY:a:rj:color=blue	!	!	!	!	!	!
8GGG/L	N((>2g/ 2e/	(4..G</N)	p	1r	.	.	4..G/	Ky-	p	2r	.	.	1r	.	.
8GG/	.	.	.	.	.	.	.	.	.	.	.	.	.	.	.
8GG/	.	.	.	.	.	.	.	.	.	.	.	.	.	.	.
8GG/J	.	.	.	.	.	.	.	.	.	.	.	.	.	.	.
.	.	16A</)	.	.	.	.	16A/	-ri-	.	.	.	.	.	.	.
*tremolo	*	*	*	*	*	*	*	*	*	*	*	*	*	*	*
!LO:TX:t=P:problem:4 kropki	!	!	!	!	!	!	!LO:TX:a:t=P:problem:comma.color=blue	!	!	!	!	!LO:DY:a:color=blue	!	!	!
8GG'>\L	4f/ 4d/	2A</	.	.	.	.	2A/	-e,	.	4..g/	Ky-	p	.	.	.
8GG\	.	.	.	.	.	.	.	.	.	.	.	.	.	.	.
8GG\	4d/ 4F</)	.	.	.	.	.	.	.	.	.	.	.	.	.	.
8GG\J	.	.	.	.	.	.	.	.	.	.	.	.	.	.	.
.	.	.	.	.	.	.	.	.	.	16G/	-ri-	.	.	.	.
*Xtremolo	*	*	*	*	*	*	*	*	*	*	*	*	*	*	*
=19	=19	=19	=19	=19	=19	=19	=19	=19	=19	=19	=19	=19	=19	=19	=19
!	!	!	!	!	!	!	!	!	!	!LO:TX:a:t=P:problem:comma.color=blue	!	!	!	!	!
8GGG/L	2f/ 2d/	4..A</	.	1r	.	.	4..A/	Ky-	.	4G/	-e,	.	1r	.	.
8GG/	.	.	.	.	.	.	.	.	.	.	.	.	.	.	.
8GG/	.	.	.	.	.	.	.	.	.	4r	.	.	.	.	.
8GG/J	.	.	.	.	.	.	.	.	.	.	.	.	.	.	.
.	.	16B</	.	.	.	.	16B/	-ri-	.	.	.	.	.	.	.
!	!	!	!	!	!	!	!LO:TX:a:t=P:problem:comma.color=blue	!	!	!	!	!	!	!	!
*tremolo	*	*	*	*	*	*	*	*	*	*	*	*	*	*	*
!LO:TX:t=P:problem:4 kropki	!	!	!	!	!	!	!	!	!	!	!	!	!	!	!
8GG'>\L	4d/	2B</	.	.	.	.	2B/	-e,	.	4..g/	Ky-	.	.	.	.
8GG\	.	.	.	.	.	.	.	.	.	.	.	.	.	.	.
8GG\	4g/	.	.	.	.	.	.	.	.	.	.	.	.	.	.
8GG\J	.	.	.	.	.	.	.	.	.	.	.	.	.	.	.
.	.	.	.	.	.	.	.	.	.	16G/	-ri-	.	.	.	.
*Xtremolo	*	*	*	*	*	*	*	*	*	*	*	*	*	*	*
*	*v	*v	*	*	*	*	*	*	*	*	*	*	*	*	*
=20	=20	=20	=20	=20	=20	=20	=20	=20	=20	=20	=20	=20	=20	=20
!	!	!	!	!	!	!	!	!LO:HP:a:color=blue	!LO:TX:a:t=P:problem:comma.color=blue	!	!	!	!	!
8GGG/L	(>4e/ 4c/	<	2r	.	.	4c\	Ky-	<	4G/	-e,	.	1r	.	.
8GG/	.	.	.	.	.	.	.	.	.	.	.	.	.	.
8GG/	4f/ 4d/	.	.	.	.	4d\	-ri-	.	4r	.	.	.	.	.
8GG/J	.	.	.	.	.	.	.	.	.	.	.	.	.	.
*tremolo	*	*	*	*	*	*	*	*	*	*	*	*	*	*
!LO:TX:t=P:problem:4 kropki	!	!	!	!	!LO:DY:a:rj:color=blue	!	!	!	!	!	!	!	!	!
8GG'/L	4g/ 4e/	.	4..G\	Ky-	p	4e\	-e	.	2r	.	.	.	.	.
8GG/	.	.	.	.	.	.	.	.	.	.	.	.	.	.
8GG/	4a/ 4f/	[[	.	.	.	4f\	e-	[	.	.	.	.	.	.
8GG/J	.	.	.	.	.	.	.	.	.	.	.	.	.	.
.	.	.	16GG/	-ri-	.	.	.	.	.	.	.	.	.	.
*Xtremolo	*	*	*	*	*	*	*	*	*	*	*	*	*	*
=21	=21	=21	=21	=21	=21	=21	=21	=21	=21	=21	=21	=21	=21	=21
*	*^	*	*	*	*	*	*	*	*	*	*	*	*	*
*	*	*^	*	*	*	*	*	*	*	*	*	*	*	*	*
*	*	*	*	*	*	*	*	*2\right	*	*	*	*	*	*	*	*
!	!	!	!	!	!	!	!	!	!	!LO:HP:a:color=blue	!	!	!	!	!	!
8GGG/L	(>2b-X/ 2g/ 2c#X/)	2ryy	2ryy	>	4GG/	-e,	.	2c#X\	-lei-	>	1r	.	.	1r	.	.
8GG/	.	.	.	.	.	.	.	.	.	.	.	.	.	.	.	.
8GG/	.	.	.	.	4r	.	.	.	.	.	.	.	.	.	.	.
8GG/J	.	.	.	.	.	.	.	.	.	.	.	.	.	.	.	.
*tremolo	*	*	*	*	*	*	*	*	*	*	*	*	*	*	*	*
!LO:TX:t=P:problem:4 kropki	!	!	!	!	!	!	!	!LO:TX:a:t=P:problem:comma.color=blue	!	!	!	!	!	!	!	!
8GG'/L	4a/	2f\	4d\	.	4..G\	Ky-	.	4d\	-son,	]	.	.	.	.	.	.
8GG/	.	.	.	.	.	.	.	.	.	.	.	.	.	.	.	.
8GG/	4dd/)	.	4cn\	]	.	.	.	4r	.	.	.	.	.	.	.	.
8GG/J	.	.	.	.	.	.	.	.	.	.	.	.	.	.	.	.
.	.	.	.	.	16GG/	-ri-	.	.	.	.	.	.	.	.	.	.
*Xtremolo	*	*	*	*	*	*	*	*	*	*	*	*	*	*	*	*
*	*	*v	*v	*	*	*	*	*	*	*	*	*	*	*	*	*
!!LO:PB:g=original
=22	=22	=22	=22	=22	=22	=22	=22	=22	=22	=22	=22	=22	=22	=22	=22
*^	*	*	*	*	*	*	*	*	*	*	*	*	*	*	*
!	!	!	!	!	!	!	!	!	!	!	!	!	!	!	!	!LO:DY:a:color=red
2D/	8GG\L	(2g/	1B\	.	4GG/	-e	.	1r	.	.	2r	.	.	4..g/	Ky-	p
.	8GG\	.	.	.	.	.	.	.	.	.	.	.	.	.	.	.
.	8GG\	.	.	.	4r	.	.	.	.	.	.	.	.	.	.	.
.	8GG\J	.	.	.	.	.	.	.	.	.	.	.	.	.	.	.
.	.	.	.	.	.	.	.	.	.	.	.	.	.	16dd\	-ri-	.
!	!	!	!	!	!	!	!	!	!	!	!	!	!	!LO:TX:a:t=P:problem:comma.color=blue	!	!
4G/	8GG\L	4f/	.	.	2r	.	.	.	.	.	4..g/	Ky-	.	2dd\	-e,	.
.	8GG\	.	.	.	.	.	.	.	.	.	.	.	.	.	.	.
4F/	8GG\	4d/	.	.	.	.	.	.	.	.	.	.	.	.	.	.
.	8GG\J	.	.	.	.	.	.	.	.	.	.	.	.	.	.	.
.	.	.	.	.	.	.	.	.	.	.	16G/	-ri-	.	.	.	.
=23	=23	=23	=23	=23	=23	=23	=23	=23	=23	=23	=23	=23	=23	=23	=23	=23
!	!	!	!	!	!	!	!	!	!	!	!LO:TX:a:t=P:problem:comma.color=blue	!	!	!	!	!
2E/	8GG\L	4e/	2c\	.	1r	.	.	1r	.	.	4G/	-e,	.	4..g/	Ky-	.
.	8GG\	.	.	.	.	.	.	.	.	.	.	.	.	.	.	.
.	8GG\	4g/	.	.	.	.	.	.	.	.	4r	.	.	.	.	.
.	8GG\J	.	.	.	.	.	.	.	.	.	.	.	.	.	.	.
.	.	.	.	.	.	.	.	.	.	.	.	.	.	16cc\	-ri-	.
2G/	8GG\L	4cc/	4e\	.	.	.	.	.	.	.	4..g/	Ky-	.	4cc\	-e	.
.	8GG\	.	.	.	.	.	.	.	.	.	.	.	.	.	.	.
.	8GG\	4b/)	4d\	.	.	.	.	.	.	.	.	.	.	4b\	e-	.
.	8GG\J	.	.	.	.	.	.	.	.	.	.	.	.	.	.	.
.	.	.	.	.	.	.	.	.	.	.	16G/	-ri-	.	.	.	.
*	*	*v	*v	*	*	*	*	*	*	*	*	*	*	*	*	*
=24	=24	=24	=24	=24	=24	=24	=24	=24	=24	=24	=24	=24	=24	=24	=24
!	!	!	!	!	!	!	!	!	!	!LO:TX:a:t=P:problem:comma.color=blue	!	!	!	!	!LO:HP:a:color=blue
4E/	8GG\L	(4a/ 4c/	.	2r	.	.	1r	.	.	4G/	-e,	.	4a\	-le-	<
.	8GG\	.	.	.	.	.	.	.	.	.	.	.	.	.	.
4D/	8GG\	4b/ 4d/	.	.	.	.	.	.	.	4r	.	.	4b\	-i-	.
!	!LO:TX:a:t=P:problem:litera s.color=red	!	!	!	!	!	!	!	!	!	!	!	!	!	!
!	!LO:TX:a:t=cre-scen-do.:problem:dynamics with extention lines	!	!	!	!	!	!	!	!	!	!	!	!	!	!
!	!	!	!LO:HP:t=cre-scen-do.:ext=ud	!	!	!	!	!	!	!	!	!	!	!	!
.	8GG\J	.	<	.	.	.	.	.	.	.	.	.	.	.	.
!	!	!	!	!	!	!LO:DY:a:rj:color=blue	!	!	!	!	!	!	!	!	!
!	!	!	!	!	!	!	!	!	!	!	!	!	!LO:TX:a:t=P:problem:comma.color=blue	!	!
4C/	8GG\L	4cc/ 4e/	.	4..G\	Ky-	mp	.	.	.	2r	.	.	4cc\	-son,	.
.	8GG\	.	.	.	.	.	.	.	.	.	.	.	.	.	.
4AA/	8GG\	4ee/ 4g/)	.	.	.	.	.	.	.	.	.	.	4ee\	e-	[
.	8GG\J	.	.	.	.	.	.	.	.	.	.	.	.	.	.
.	.	.	.	16GG/	-ri-	.	.	.	.	.	.	.	.	.	.
=25	=25	=25	=25	=25	=25	=25	=25	=25	=25	=25	=25	=25	=25	=25	=25
*	*	*^	*	*	*	*	*	*	*	*	*	*	*	*	*
!	!	!	!	!	!LO:TX:a:t=P:problem:comma.color=blue	!	!	!	!	!	!	!	!	!	!	!LO:HP:a:color=blue
(4BB/	8GG\L	(<4.ee/	2.f\	.	4GG/	-e,	.	1r	.	.	1r	.	.	4.ee\	-le-	>
.	8GG\	.	.	.	.	.	.	.	.	.	.	.	.	.	.	.
4D/	8GG\	.	.	.	4r	.	.	.	.	.	.	.	.	.	.	.
.	8GG\J	8dd/	.	.	.	.	.	.	.	.	.	.	.	8dd\	-i-	.
!	!	!	!	!	!	!	!LO:DY:a:color=blue	!	!	!	!	!	!	!	!	!
!	!	!	!	!	!	!	!	!	!	!	!	!	!	!LO:TX:a:t=P:problem:comma.color=blue	!	!
8G/)	8GG\L	4b/	.	.	4..G\	Ky-	mf	.	.	.	.	.	.	4g/	-son,	]
8r	8GG\	.	.	.	.	.	.	.	.	.	.	.	.	.	.	.
4r	8GG\	4g/)	4ryy	[	.	.	.	.	.	.	.	.	.	4r	.	.
.	8GG\J	.	.	.	.	.	.	.	.	.	.	.	.	.	.	.
.	.	.	.	.	16G\	-ri-	.	.	.	.	.	.	.	.	.	.
=26	=26	=26	=26	=26	=26	=26	=26	=26	=26	=26	=26	=26	=26	=26	=26	=26
!	!	!	!	!	!	!	!	!	!	!LO:DY:a:rj:color=red	!	!	!LO:DY:a:color=red:rj	!	!	!LO:DY:a:color=blue
8ryy	1C\ 1CC\	(4..cc/ 4..g/	8e\L 8c\	mf	2C/	-e	.	4..G/	Ky-	mf	4..e/	Ky-	mf	4..cc\	Ky-	mf
8G/L	.	.	8e\ 8c\	.	.	.	.	.	.	.	.	.	.	.	.	.
8G/	.	.	8e\ 8c\	.	.	.	.	.	.	.	.	.	.	.	.	.
8G/J	.	.	8e\J 8c\	.	.	.	.	.	.	.	.	.	.	.	.	.
.	.	16b/ 16g/	.	.	.	.	.	16G/	-ri-	.	16e/	-ri-	.	16b\	-ri-	.
*tremolo	*	*	*	*	*	*	*	*	*	*	*	*	*	*	*	*
!	!	!	!	!	!	!	!	!LO:TX:a:t=P:problem:comma.color=blue	!	!	!LO:TX:a:t=P:problem:comma.color=blue	!	!	!LO:TX:a:t=P:problem:comma.color=blue	!	!
8G/L	.	2b/ 2g/)	8e\L 8c\	.	2C/	e-	.	2G/	-e,	.	2e/	-e,	.	2b\	-e,	.
8G/	.	.	8e\ 8c\	.	.	.	.	.	.	.	.	.	.	.	.	.
!	!	!	!	!LO:HP:t=dimi.:color=blue	!	!	!	!	!	!	!	!	!	!	!	!
8G/	.	.	8e\ 8c\	>	.	.	.	.	.	.	.	.	.	.	.	.
8G/J	.	.	8e\J 8c\	.	.	.	.	.	.	.	.	.	.	.	.	.
=27	=27	=27	=27	=27	=27	=27	=27	=27	=27	=27	=27	=27	=27	=27	=27	=27
!LO:TX:a:t=P:problem:4 kropki	!	!	!	!	!	!	!LO:HP:a:t=dimi:color=blue	!	!	!LO:HP:a:t=dimi:color=red	!	!	!LO:HP:a:t=dimi:color=red	!	!	!LO:HP:a:t=dimi.:color=blue
8G'</L	1C\	(4..b/ 4..g/	8e\L 8c\	.	4..C/	-le-	>	4..G/	Ky-	>	4..e/	Ky-	>	4..b\	Ky-	>
8G/	.	.	8e\ 8c\	.	.	.	.	.	.	.	.	.	.	.	.	.
8G/	.	.	8e\ 8c\	.	.	.	.	.	.	.	.	.	.	.	.	.
8G/J	.	.	8e\J 8c\	.	.	.	.	.	.	.	.	.	.	.	.	.
.	.	16a/ 16f/	.	.	16C/	-i-	.	16F/	-ri-	.	16f/	-ri-	.	16a\	-ri-	.
!	!	!	!	!	!	!	!LO:DY:a:color=red	!	!	!	!	!	!	!	!	!
!LO:TX:a:t=P:problem:4 kropki	!	!	!	!	!LO:TX:a:t=P:problem:comma.color=blue	!	!	!LO:TX:a:t=P:problem:comma.color=blue	!	!	!LO:TX:a:t=P:problem:comma.color=blue	!	!	!LO:TX:a:t=P:problem:comma.color=blue	!	!
8A'</L	.	2a/ 2f/)	8c\L	.	4C/	-son,	p	2F/	-e,	.	2f/	-e,	.	2a\	-e,	.
8A/	.	.	8c\	.	.	.	.	.	.	.	.	.	.	.	.	.
8A/	.	.	8c\	.	4c\	e-	.	.	.	.	.	.	.	.	.	.
8A/J	.	.	8c\J	.	.	.	.	.	.	.	.	.	.	.	.	.
*Xtremolo	*	*	*	*	*	*	*	*	*	*	*	*	*	*	*	*
!!LO:LB:g=original
=28	=28	=28	=28	=28	=28	=28	=28	=28	=28	=28	=28	=28	=28	=28	=28	=28
!	!	!	!	!	!	!	!	!	!	!	!	!	!	!	!	!LO:DY:a:color=blue
!	!	!	!	!LO:DY:rj:color=blue	!	!	!	!	!	!	!	!	!	!	!	!LO:HP:a:color=blue
8c/L 8A/	4C\	(4a/	8f\L	p	2.c\	-le-	.	4F/	Ky-	.	4.f/	Ky-	.	4a\	Ky-	p <
8c/ 8A/	.	.	8f\	.	.	.	.	.	.	.	.	.	.	.	.	.
!	!	!	!	!LO:HP:color=blue	!	!	!	!	!	!	!	!	!	!	!	!
8B/ 8G/	4C\	4b/ 4g/	8f\	<	.	.	.	4G/	-ri-	.	.	.	.	4b\	-ri-	.
8B/J 8G/	.	.	8f\J	.	.	.	.	.	.	.	8f/	-ri-	.	.	.	.
8A/L 8F/	4C\	4cc/ 4a/	8f\L	.	.	.	.	4A/	-e	.	4f/	-e	.	4cc\	-e	.
8A/ 8F/	.	.	8f\	.	.	.	.	.	.	.	.	.	.	.	.	.
8G/ 8D/	4C\	4dd/ 4b/	8f\	.	4G\	-i-	.	4B/	e-	.	4f/	e-	.	4dd\	e-	[[
8G/J	.	.	8f\J	[[	.	.	.	.	.	.	.	.	.	.	.	.
=29	=29	=29	=29	=29	=29	=29	=29	=29	=29	=29	=29	=29	=29	=29	=29	=29
!	!	!	!	!LO:HP:color=blue	!LO:TX:a:t=P:problem:comma.color=blue	!	!	!	!	!	!	!	!	!	!	!LO:HP:a:color=blue
8G/L	1C\	2ee/ 2cc/	8e\L	>	[2C/	-son,	.	2c\	-lei-	.	2e/	-lei-	.	2ee\	-lei-	>
8c/ 8G/	.	.	8g\ 8e\	.	.	.	.	.	.	.	.	.	.	.	.	.
8c/ 8G/	.	.	8g\ 8e\	.	.	.	.	.	.	.	.	.	.	.	.	.
8c/J 8G/	.	.	8g\J 8e\	.	.	.	.	.	.	.	.	.	.	.	.	.
*tremolo	*	*	*tremolo	*	*	*	*	*	*	*	*	*	*	*	*	*
!LO:TX:a:t=P:problem:4 kropki	!	!	!	!	!	!	!	!LO:TX:a:t=P:problem:comma.color=blue	!	!	!LO:TX:a:t=P:problem:comma.color=blue	!	!	!LO:TX:a:t=P:problem:comma.color=blue	!	!
8c'</L 8G'</	.	4cc/)	8g\L 8e\	]	8C/]	.	.	8e\	-son,	.	8g/	-son,	.	8cc\	-son,	.
8c/ 8G/	.	.	8g\ 8e\	.	8r	.	.	8r	.	.	8r	.	.	8r	.	]
!	!	!	!	!	!	!	!	!	!	!	!	!	!	!	!	!LO:HP:a:color=blue
8c/ 8G/	.	4ee/	8g\ 8e\	.	4C/	e-	.	4G/	e-	.	4g/	e-	.	4ee\	e-	<[[
8c/J 8G/	.	.	8g\J 8e\	.	.	.	.	.	.	.	.	.	.	.	.	.
*Xtremolo	*	*	*Xtremolo	*	*	*	*	*	*	*	*	*	*	*	*	*
=30	=30	=30	=30	=30	=30	=30	=30	=30	=30	=30	=30	=30	=30	=30	=30	=30
!	!	!LO:S:s=2:note:problem:note-level slur	!	!LO:DY:rj:color=blue	!	!	!	!	!	!	!	!	!	!	!	!LO:DY:a:color=blue
8e/L 8B-X/	2C#X\	(>2gg/ (>2ee/	8g\L	mf	2C#X/	-lei-	.	2B-X/	-lei-	.	2e/	-lei-	.	2gg\	-lei-	mf
8e/ 8B-/	.	.	8g\	.	.	.	.	.	.	.	.	.	.	.	.	.
8e/ 8B-/	.	.	8g\	.	.	.	.	.	.	.	.	.	.	.	.	.
8e/J 8B-/	.	.	8g\J	.	.	.	.	.	.	.	.	.	.	.	.	.
!	!	!LO:S:s=2:note:problem:note-level slur	!	!	!	!	!	!	!	!	!	!	!	!	!	!LO:HP:a:t=dimi.:color=blue
!	!	!	!	!	!LO:TX:a:t=P:problem:comma.color=blue	!	!	!LO:TX:a:t=P:problem:comma.color=blue	!	!	!LO:TX:a:t=P:problem:comma.color=blue	!	!	!LO:TX:a:t=P:problem:comma.color=blue	!	!
8d/L 8A/	4D\	4ff/ 4dd/))	8f\L	.	8D/	-son,	.	8A/	-son,	.	8f/	-son,	.	8ff\	-son,	>
8d/ 8A/	.	.	8f\	.	8r	.	.	8r	.	.	8r	.	.	8r	.	.
!	!	!	!	!LO:HP:t=diminu.:color=blue	!	!	!	!	!	!	!	!	!	!	!	!
8d/ 8A/	4Cn\	4dd/	8f\	>	4Cn/	e-	.	4A/	e-	.	4f/	e-	.	4dd\	e-	.
8d/J 8A/	.	.	8f\J	.	.	.	.	.	.	.	.	.	.	.	.	.
=31	=31	=31	=31	=31	=31	=31	=31	=31	=31	=31	=31	=31	=31	=31	=31	=31
8d/L 8A-X/	2BB\	2ff/ 2dd/	8f\L	.	(2BB/	-le-	.	(2A-X/	-le-	.	(2d/	-le-	.	(2ff\	-le-	.
8d/ 8A-/	.	.	8f\	.	.	.	.	.	.	.	.	.	.	.	.	.
8d/ 8A-/	.	.	8f\	.	.	.	.	.	.	.	.	.	.	.	.	.
8d/J 8A-/	.	.	8f\J	.	.	.	.	.	.	.	.	.	.	.	.	.
8c/L 8G/	4C\	4ee/ 4cc/	8e\L	.	4C/)	-i-	.	4G/)	-i-	.	4e/)	-i-	.	4ee\)	-i-	.
8c/ 8G/	.	.	8e\	.	.	.	.	.	.	.	.	.	.	.	.	.
8c/ 8G/	4E\	4cc/ 4g/	8e\	.	4E\	-son,	.	4c\	-son,	.	4g/	-son,	.	4cc\	-son.	.
8c/J 8G/	.	.	8e\J	.	.	.	.	.	.	.	.	.	.	.	.	.
=32	=32	=32	=32	=32	=32	=32	=32	=32	=32	=32	=32	=32	=32	=32	=32	=32
!	!	!	!	!LO:DY:color=blue	!	!	!	!	!	!	!	!	!	!	!	!LO:DY:a:rj:color=blue
!	!	!	!LO:TX:a:t=P:problem:stem.color=red	!	!	!	!	!	!	!	!	!	!	!	!	!LO:HP:a:color=blue
8G/	4GG\	4g/ 4e/	4e\	p	2GG/	Ky-	.	4e\	Ky-	.	4g/	Ky-	.	4g/	Ky-	p<
4G/	.	.	.	.	.	.	.	.	.	.	.	.	.	.	.	.
!	!	!	!	!LO:HP:color=blue	!	!	!	!	!	!	!	!	!	!	!	!
.	4GG\	4a/ 4f#X/	2d\	<	.	.	.	4d\	-ri-	.	4f#X/	-ri-	.	4a/	-ri-	.
4G/	.	.	.	.	.	.	.	.	.	.	.	.	.	.	.	.
.	4GG\	4b/ 4fn/	.	.	4GG/	-ri-	.	4G/	-e	.	4fn/	-e	.	4b/	-e	.
4G/	.	.	.	.	.	.	.	.	.	.	.	.	.	.	.	.
.	4GG\	4cc/ 4e/	4e\	.	4GG/	-e	.	4A/	e-	.	4e/	e-	.	4cc/	e-	[
8G/	.	.	.	[[	.	.	.	.	.	.	.	.	.	.	.	.
=33	=33	=33	=33	=33	=33	=33	=33	=33	=33	=33	=33	=33	=33	=33	=33	=33
!	!	!	!	!LO:HP:color=blue	!	!	!	!	!	!	!	!	!	!	!	!LO:HP:a:color=blue
(>4F/	8GG\L	(2.dd/	8d\	>	(4GG/	e-	.	(4F/	-lei-	.	2.d/	-lei-	.	(2.dd\	-lei-	>
.	8GG\	.	4d\	.	.	.	.	.	.	.	.	.	.	.	.	.
4A-X/ 4C/	8GG\	.	.	.	4C/)	.	.	4A-X/)	.	.	.	.	.	.	.	.
.	8GG\J	.	4d\	.	.	.	.	.	.	.	.	.	.	.	.	.
!	!	!	!	!	!	!	!	!LO:TX:a:t=P:problem:comma.color=blue	!	!	!	!	!	!	!	!
4G/ 4BB/	8GG\L	.	.	.	4BB/	-lei-	.	2G/	-son,	.	.	.	.	.	.	.
.	8GG\	.	4d\	]	.	.	.	.	.	.	.	.	.	.	.	.
!	!	!	!	!	!LO:TX:a:t=P:problem:comma.color=blue	!	!	!	!	!	!LO:TX:a:t=P:problem:comma.color=blue	!	!	!LO:TX:a:t=P:problem:comma.color=blue	!	!
4B/ 4D/)	8GG\	4g/)	.	.	4D/	-son,	.	.	.	.	4d/	-son,	.	4g/)	-son,	]
.	8GG\J	.	8f\ 8d\	.	.	.	.	.	.	.	.	.	.	.	.	.
!!LO:PB:g=original
=34	=34	=34	=34	=34	=34	=34	=34	=34	=34	=34	=34	=34	=34	=34	=34	=34
!	!	!	!	!LO:DY:rj:color=blue	!	!	!	!	!	!	!	!	!	!	!	!LO:DY:a:color=blue
[2G/ 2E/	8GG\L	(4..g/	2e\ [2c\	p	(2E\	Chris-	.	(4..G/	Chris-	.	[1c/	Chris-	.	2g/	Chris-	p
.	8GG\	.	.	.	.	.	.	.	.	.	.	.	.	.	.	.
.	8GG\	.	.	.	.	.	.	.	.	.	.	.	.	.	.	.
.	8GG\J	.	.	.	.	.	.	.	.	.	.	.	.	.	.	.
.	.	16a/)	.	.	.	.	.	16A/)	.	.	.	.	.	.	.	.
!	!	!	!	!	!	!	!	!LO:TX:a:t=P:problem:comma.color=blue	!	!	!	!	!	!	!	!
2G/_ 2D#X/	8GG\L	2a/	2f#X\ 2c\]	.	2D#X\	.	.	2A/	-te,	.	.	.	.	4f#X/	-te	.
.	8GG\	.	.	.	.	.	.	.	.	.	.	.	.	.	.	.
.	8GG\	.	.	.	.	.	.	.	.	.	.	.	.	4f#/	e-	.
.	8GG\J	.	.	.	.	.	.	.	.	.	.	.	.	.	.	.
=35	=35	=35	=35	=35	=35	=35	=35	=35	=35	=35	=35	=35	=35	=35	=35	=35
!	!	!LO:S:color=red	!LO:ART:color=blue	!	!	!	!	!	!	!	!	!	!	!LO:ART:color=blue	!	!
2G/] 2Dn/	8GG\L	(4..a/	2fn^\ 2c\	.	2Dn\)	.	.	(4..A/	Chris-	.	2c/]	.	.	2fn^>/	-lei-	.
.	8GG\	.	.	.	.	.	.	.	.	.	.	.	.	.	.	.
.	8GG\	.	.	.	.	.	.	.	.	.	.	.	.	.	.	.
.	8GG\J	.	.	.	.	.	.	.	.	.	.	.	.	.	.	.
.	.	16b/)	.	.	.	.	.	16B/)	.	.	.	.	.	.	.	.
!	!	!	!	!	!	!	!	!LO:TX:a:t=P:problem:comma.color=blue	!	!	!LO:TX:a:t=P:problem:comma.color=blue	!	!	!LO:TX:a:t=P:problem:comma.color=blue	!	!
2G/	8GG\L	2b/	2f\ 2d\	.	8GG/	-te	.	2B/	-te,	.	2d/	-te,	.	8d/	-son,	.
.	8GG\	.	.	.	8r	.	.	.	.	.	.	.	.	8r	.	.
.	8GG\	.	.	.	4GG/	e-	.	.	.	.	.	.	.	[4g/	Chris-	.
.	8GG\J	.	.	.	.	.	.	.	.	.	.	.	.	.	.	.
*	*	*v	*v	*	*	*	*	*	*	*	*	*	*	*	*	*
=36	=36	=36	=36	=36	=36	=36	=36	=36	=36	=36	=36	=36	=36	=36	=36
!	!	!	!	!	!	!	!	!	!	!	!	!	!	!	!LO:HP:a:color=blue
(4G/ 4E/	8GG\L	(4cc/ 4e/	.	2G\	-lei-	.	(4c\	Chris-	.	(4e/	Chris-	.	2g/]	.	<
!	!	!	!LO:HP:color=blue	!	!	!	!	!	!	!	!	!	!	!	!
.	8GG\	.	<	.	.	.	.	.	.	.	.	.	.	.	.
4F/ 4D/	8GG\	4dd/ 4f/	.	.	.	.	4d\)	.	.	4f/)	.	.	.	.	.
.	8GG\J	.	.	.	.	.	.	.	.	.	.	.	.	.	.
!	!	!	!	!LO:TX:a:t=P:problem:comma.color=blue	!	!	!	!	!	!	!	!	!	!	!
4E/ 4C/	8GG\L	4ee/ 4g/	.	8G\	-son,	.	4e\	-te	.	4g/	-te	.	4cc\	-te	.
.	8GG\	.	.	8r	.	.	.	.	.	.	.	.	.	.	.
4G/)	8GG\	4ff/ 4a/)	.	4G\	e-	.	4f\	e-	.	4a/	e-	.	4cc\	e-	[
.	8GG\J	.	[[	.	.	.	.	.	.	.	.	.	.	.	.
=37	=37	=37	=37	=37	=37	=37	=37	=37	=37	=37	=37	=37	=37	=37	=37
*	*	*^	*	*	*	*	*	*	*	*	*	*	*	*	*
!	!	!LO:ART:color=blue	!	!	!	!	!	!	!	!	!	!	!LO:HP:a:color=red	!	!	!LO:HP:a:color=blue
(2B-X/	8GG\L	(>2cc#X^/ 2g/ 2e/	2ryy	.	2B-X^\	-lei-	.	2e^\	-lei-	.	2g^>/	-lei-	>	2cc#X^\	-lei-	>
.	8GG\	.	.	.	.	.	.	.	.	.	.	.	.	.	.	.
!	!	!	!	!LO:HP:color=blue	!	!	!	!	!	!	!	!	!	!	!	!
.	8GG\	.	.	>	.	.	.	.	.	.	.	.	.	.	.	.
.	8GG\J	.	.	.	.	.	.	.	.	.	.	.	.	.	.	.
!	!	!	!	!	!LO:TX:a:t=P:problem:comma.color=blue	!	!	!LO:TX:a:t=P:problem:comma.color=blue	!	!	!LO:TX:a:t=P:problem:comma.color=blue	!	!	!	!	!
4A/	8GG\L	4dd/)	2f\ 2d\	.	8A\	-son,	.	4d\	-son,	.	[2f/	-son,	]]	4dd\	-son,	]
.	8GG\	.	.	]	8r	.	.	.	.	.	.	.	.	.	.	.
!	!	!	!	!	!	!	!LO:DY:a:color=red	!	!	!LO:DY:a:rj:color=red	!	!	!	!	!	!
4F/)	8GG\	4r	.	.	4F\	e-	mp	4c\	e-	mp	.	.	.	4r	.	.
.	8GG\J	.	.	.	.	.	.	.	.	.	.	.	.	.	.	.
*	*	*v	*v	*	*	*	*	*	*	*	*	*	*	*	*	*
=38	=38	=38	=38	=38	=38	=38	=38	=38	=38	=38	=38	=38	=38	=38	=38
!	!	!	!LO:DY:color=blue	!	!	!	!	!	!	!	!	!LO:HP:a:t=crescen:color=red	!	!	!LO:DY:a:rj:color=blue
(2Bn/ 2D/	8GG\L	4..g/ 4..f/ 4..d/	mp	(2D/	-lei-	.	(2B/	-lei-	.	1f/]	.	<	(4..g/	Chris-	mp
.	8GG\	.	.	.	.	.	.	.	.	.	.	.	.	.	.
.	8GG\	.	.	.	.	.	.	.	.	.	.	.	.	.	.
.	8GG\J	.	.	.	.	.	.	.	.	.	.	.	.	.	.
!	!	!LO:TX:a:t=P:problem:litera s.:color=blue	!	!	!	!	!	!	!	!	!	!	!	!	!
!	!	!LO:TX:b:t=cre-scen-do:problem:dynamics with extention lines	!	!	!	!	!	!	!	!	!	!	!LO:TX:a:t=cre-scen-do:problem:dynamics with extention lines	!	!
!	!	!	!LO:HP:t=cre-scen-do:ext=ud	!	!	!	!	!	!	!	!	!	!	!	!LO:HP:a:t=cre-scen-do:color=blue:ext=cd
.	.	16dd/ 16f/ 16d/	<	.	.	.	.	.	.	.	.	.	16dd\)	.	<
4A/ 4C/	8GG\L	2dd/ 2f/ 2d/	.	4C/)	.	.	4A/)	.	.	.	.	.	2dd\	-te	.
.	8GG\	.	.	.	.	.	.	.	.	.	.	.	.	.	.
!LO:TX:a:t=P:problem:łuk kończy się na kresce taktowej	!	!	!	!LO:TX:a:t=P:problem:comma.color=blue	!	!	!LO:TX:a:t=P:problem:comma.color=blue	!	!	!	!	!	!	!	!
4G/ 4BB/)	8GG\	.	.	4BB/	-son,	.	4G/	-son,	.	.	.	.	.	.	.
.	8GG\J	.	.	.	.	.	.	.	.	.	.	.	.	.	.
!!LO:LB:g=original
=39	=39	=39	=39	=39	=39	=39	=39	=39	=39	=39	=39	=39	=39	=39	=39
*	*	*^	*	*	*	*	*	*	*	*	*	*	*	*	*
(<8C/L	8GG\L	4..g/ 4..e/ 4..c/	2ryy	.	(4C\	Chris-	.	(2.e\	Chris-	.	(4e/	Chris-	.	(4..g\	Chris-	.
8A/	8GG\	.	.	.	.	.	.	.	.	.	.	.	.	.	.	.
8G/	8GG\	.	.	.	4GG/)	.	.	.	.	.	4c/)	.	.	.	.	.
8E/J)	8GG\J	.	.	.	.	.	.	.	.	.	.	.	.	.	.	.
.	.	16cc/ 16g/ 16e/	.	.	.	.	.	.	.	.	.	.	.	16cc\)	.	.
4C/	8GG\L	4cc/ 4e/	2g\	.	4C\	-te	.	.	.	.	4A/	-te	.	4cc\	-te	.
.	8GG\	.	.	.	.	.	.	.	.	.	.	.	.	.	.	.
4D/	8GG\	4b/ 4d/	.	.	4D\	e-	.	4d\)	.	.	4B/	e-	.	4b\	e-	.
.	8GG\J	.	.	.	.	.	.	.	.	.	.	.	.	.	.	.
=40	=40	=40	=40	=40	=40	=40	=40	=40	=40	=40	=40	=40	=40	=40	=40	=40
*	*	*	*	*	*	*	*	*	*	*	*	*	*	*	*	*^
!	!	!	!	!	!	!	!	!	!	!	!	!	!LO:HP:a	!	!	!	!
(4E/	8GG\L	(<4a/ 4c/	1g\	.	(4E\	-lei-	.	(4c\	-te	<	(4c/	-lei-	<	(4a\	-lei-	.	<
.	8GG\	.	.	.	.	.	.	.	.	.	.	.	.	.	.	.	.
!	!	!	!	!	!	!	!LO:HP:a	!	!	!	!	!	!	!	!	!	!
4D/	8GG\	4b/ 4B/	.	.	4D\)	.	<	4B\)	.	.	4d/)	.	.	4b\)	.	.	.
.	8GG\J	.	.	.	.	.	.	.	.	.	.	.	.	.	.	.	.
!	!	!	!	!	!LO:TX:a:t=P:problem:comma.color=blue	!	!	!	!	!	!LO:TX:a:t=P:problem:comma.color=blue	!	!	!LO:TX:a:t=P:problem:comma.color=blue	!	!	!
4A/ 4C/	8GG\L	4cc/ 4c/	.	.	4C\	-son,	.	2A\	e-	[[	4e/	-son,	.	4cc\	-son,	.	.
.	8GG\	.	.	.	.	.	.	.	.	.	.	.	.	.	.	.	.
4AA/)	8GG\	4ee/ 4e/)	.	.	4AA/	e-	[[	.	.	.	4e/	e-	[[	4ee\	e-	[	[
.	8GG\J	.	.	.	.	.	.	.	.	.	.	.	.	.	.	.	.
*	*	*	*	*	*	*	*	*	*	*	*	*	*	*	*	*v	*v
=41	=41	=41	=41	=41	=41	=41	=41	=41	=41	=41	=41	=41	=41	=41	=41	=41
!	!	!	!LO:TX:a:t=P:problem:stem.color=red	!	!	!	!LO:HP:a	!	!	!	!	!	!LO:DY:a	!	!	!LO:HP:a
!	!LO:TX:a:t=P:problem:w źródle brak tremolo, niewłaściwe wyświetlanie	!	!LO:TX:a:t=P:problem:dot.color=red	!	!	!	!	!	!	!	!	!	!	!	!	!
4BB/	8GG\L	(<4ee/	2.f\	[	(4BB/	-lei-	>	2G/	-lei-	>	2g/	-lei-	>	4.ee\	-le-	>
.	8GG\	.	.	.	.	.	.	.	.	.	.	.	.	.	.	.
4D/	8GG\	4dd/	.	.	4D/)	.	.	.	.	.	.	.	.	.	.	.
.	8GG\J	.	.	.	.	.	.	.	.	.	.	.	.	8dd\	-i-	]]
*tremolo	*	*	*	*	*	*	*	*	*	*	*	*	*	*	*	*
!	!	!	!	!	!	!	!	!	!	!	!LO:TX:a:t=P:problem:comma.color=blue	!	!	!LO:TX:a:t=P:problem:comma.color=blue	!	!
!LO:TX:a:t=P:problem:4 kropki	!	!	!	!	!	!	!	!LO:TX:a:t=P:problem:comma.color=blue	!	!	!	!	!	!LO:TX:a:t=P:problem:początkowo po "-son" kropka zwykłym atramentem, przerobiona na niebieski przecinek. Także w Alcie i Tenorze	!	!
8G'/L 8GG'/	2ryy	4b/)	.	.	4G\	-son,	]	4G/	-son,	]	4g/	-son,	]	4g/	-son,	.
8G/ 8GG/	.	.	.	.	.	.	.	.	.	.	.	.	.	.	.	.
8G/ 8GG/	.	4gg/ 4g/	4ryy	.	4r	.	.	4r	.	.	4r	.	.	4r	.	.
8G/J 8GG/	.	.	.	.	.	.	.	.	.	.	.	.	.	.	.	.
*v	*v	*	*	*	*	*	*	*	*	*	*	*	*	*	*	*
=42	=42	=42	=42	=42	=42	=42	=42	=42	=42	=42	=42	=42	=42	=42	=42
*	*	*	*	*^	*	*	*	*	*	*	*	*	*	*	*
*	*	*tremolo	*	*	*	*	*	*	*	*	*	*	*	*	*	*
!	!	!	!	!	!	!	!	!	!	!	!	!	!	!	!	!LO:DY:a:rj:color=blue
8C/L 8GG/ 8CC/	(4..ccc/ 4..cc/	8ee\L 8cc\	f	4..G/	4..C\	Ky-	.	4..c\	Ky-	.	4..e/	Ky-	.	4..cc/ 4..g/	Ky-	f
8C/ 8GG/ 8CC/	.	8ee\ 8cc\	.	.	.	.	.	.	.	.	.	.	.	.	.	.
8C/ 8GG/ 8CC/	.	8ee\ 8cc\	.	.	.	.	.	.	.	.	.	.	.	.	.	.
8C/ 8GG/ 8CC/	.	8ee\J 8cc\	.	.	.	.	.	.	.	.	.	.	.	.	.	.
.	16bb/ 16b/	.	.	16G/	16C\	-ri-	.	16B\	-ri-	.	16e/	-ri-	.	16b/ 16g/	-ri-	.
!	!	!	!LO:HP:color=blue	!LO:TX:a:t=P:problem:comma.color=blue	!	!	!	!LO:TX:a:t=P:problem:comma.color=blue	!	!	!LO:TX:a:t=P:problem:comma.color=blue	!	!	!LO:TX:a:t=P:problem:comma.color=blue	!	!LO:HP:a:color=blue
8C/ 8GG/ 8CC/	2bb/ 2b/)	8ee\L 8cc\	>	2G/	2C\	-e,	.	2B\	-e,	.	2e/	-e,	.	2b/ 2g/	-e,	>
8C/ 8GG/ 8CC/	.	8ee\ 8cc\	.	.	.	.	.	.	.	.	.	.	.	.	.	.
8C/ 8GG/ 8CC/	.	8ee\ 8cc\	.	.	.	.	.	.	.	.	.	.	.	.	.	.
8C/J 8GG/ 8CC/	.	8ee\J 8cc\	.	.	.	.	.	.	.	.	.	.	.	.	.	.
*Xtremolo	*	*	*	*	*	*	*	*	*	*	*	*	*	*	*	*
=43	=43	=43	=43	=43	=43	=43	=43	=43	=43	=43	=43	=43	=43	=43	=43	=43
8C/L 8GG/ 8CC/	(4..bb/ 4..gg/ 4..b/	8ee\L 8cc\	.	4..G/	4..C\	Ky-	.	4..B\	Ky-	.	4..e/	Ky-	.	4..b/ 4..g/	Ky-	.
8C/ 8GG/ 8CC/	.	8ee\ 8cc\	.	.	.	.	.	.	.	.	.	.	.	.	.	.
8C/ 8GG/ 8CC/	.	8ee\ 8cc\	.	.	.	.	.	.	.	.	.	.	.	.	.	.
8C/J 8GG/ 8CC/	.	8ee\J 8cc\	.	.	.	.	.	.	.	.	.	.	.	.	.	.
.	16aa/ 16a/)	.	.	16F/	16C\	-ri-	.	16A\	-ri-	.	16f/	-ri-	.	16a/ 16f/	-ri-	.
*tremolo	*	*	*	*	*	*	*	*	*	*	*	*	*	*	*	*
!LO:TX:a:t=P:problem:4 kropki	!	!	!	!LO:TX:a:t=P:problem:comma.color=blue	!	!	!	!LO:TX:a:t=P:problem:comma.color=blue	!	!	!LO:TX:a:t=P:problem:comma.color=blue	!	!	!LO:TX:a:t=P:problem:comma.color=blue	!	!
8C'/L 8AA'/ 8CC'/	2aa/ 2a/	8ff\L 8cc\	]	4.F/	4.C\	-e,	.	4.A\	-e,	.	4.c/	-e,	.	4.a/ 4.f/	-e,	]
8C/ 8AA/ 8CC/	.	8ff\ 8cc\	.	.	.	.	.	.	.	.	.	.	.	.	.	.
8C/ 8AA/ 8CC/	.	8ff\ 8cc\	.	.	.	.	.	.	.	.	.	.	.	.	.	.
8C/J 8AA/ 8CC/	.	8ff\J 8cc\	.	8r	8ryy	.	.	8r	.	.	8r	.	.	8r	.	.
*Xtremolo	*	*Xtremolo	*	*	*	*	*	*	*	*	*	*	*	*	*	*
!!LO:PB:g=original
=44	=44	=44	=44	=44	=44	=44	=44	=44	=44	=44	=44	=44	=44	=44	=44	=44
*^	*	*	*	*	*	*	*	*	*	*	*	*	*	*	*	*
!	!	!	!	!LO:DY:rj:color=blue	!	!	!	!	!LO:TX:a:t=P:problem:nad nutami, do 8cc\ w kolejnym takcie, delikatnie napisane czerwone oznaczenia, przypominające pionowe kreski	!	!	!	!	!	!	!	!LO:DY:a:color=blue
8c/L 8A/	8C\L	4aa/ 4a/	8ff\L 8cc\	mp	4F/	4C\	Ky-	.	4A\	Ky-	.	4c/	Ky-	.	4a/ 4f/	Ky-	mp
!	!	!	!	!LO:HP:color=blue	!	!	!	!	!	!	!	!	!	!	!	!	!
8c/J 8A/	8C\	.	8ff\J 8cc\	<	.	.	.	.	.	.	.	.	.	.	.	.	.
!	!	!	!	!	!	!	!	!	!	!	!	!	!	!	!	!	!LO:HP:a:color=blue
8B/L 8G/	8C\	4bb/ 4b/	8ff\L 8dd\	.	4G/	4C\	-ri-	.	4B\	-ri-	.	4g/	-ri-	.	4b/ 4g/	-ri-	<
8B/J 8G/	8C\J	.	8ff\J 8dd\	.	.	.	.	.	.	.	.	.	.	.	.	.	.
8A/L 8F/	8C\L	4ccc/ 4cc/	8aa\L 8ff\	.	4A/	4C\	-e	.	4c\	-e	.	4f/	-e	.	4cc/ 4a/	-e	.
8A/J 8F/	8C\	.	8aa\J 8ff\	.	.	.	.	.	.	.	.	.	.	.	.	.	.
8G/L	8C\	4ddd/ 4dd/	8bb\L 8ff\	[	4G/	4C\	e-	.	4d\	e-	.	4f/	e-	.	4dd\ 4b\	e-	[[
8G/J	8C\J	.	8bb\J 8ff\	.	.	.	.	.	.	.	.	.	.	.	.	.	.
*v	*v	*	*	*	*	*	*	*	*	*	*	*	*	*	*	*	*
=45	=45	=45	=45	=45	=45	=45	=45	=45	=45	=45	=45	=45	=45	=45	=45	=45
*tremolo	*	*tremolo	*	*	*	*	*	*	*	*	*	*	*	*	*	*
!	!LO:S:color=red	!	!LO:HP:color=blue	!	!	!	!	!	!	!	!	!	!	!	!	!LO:HP:a:color=blue
8c\L 8G\ 8C\	(>2eee/	8gg\L 8ee\	>	2G/	2C\	-lei-	.	2e\ 2c\	-lei-	.	(4e/	-lei-	.	2ee\ 2cc\	-lei-	>
8c\ 8G\ 8C\	.	8gg\ 8ee\	.	.	.	.	.	.	.	.	.	.	.	.	.	.
8c\ 8G\ 8C\	.	8gg\ 8ee\	.	.	.	.	.	.	.	.	4g/)	.	.	.	.	.
8c\ 8G\ 8C\	.	8gg\J 8ee\	.	.	.	.	.	.	.	.	.	.	.	.	.	.
!	!	!	!	!LO:TX:a:t=P:problem:comma.color=blue	!	!	!	!LO:TX:a:t=P:problem:comma.color=blue	!	!	!	!	!	!	!	!
8c\ 8G\ 8C\	4ccc/)	8gg\L 8ee\ 8cc\	]	8c/	8C\	-son,	.	8c\	-son,	.	4.cc/	-son,	.	8cc\	-son,	]
8c\ 8G\ 8C\	.	8gg\J 8ee\ 8cc\	.	8r	8r	.	.	8r	.	.	.	.	.	8r	.	.
*	*8va	*	*	*	*	*	*	*	*	*	*	*	*	*	*	*
!	!	!	!LO:DY:color=blue	!	!	!	!LO:DY:a:color=red	!	!	!LO:DY:a:color=red	!	!	!	!	!	!LO:DY:a:color=blue
8c\ 8G\ 8C\	4eee/ 4gg/	8gg\L 8ee\	f	4c\	4ryy	e-	f	4e\	e-	f	.	.	.	4ee\	e-	f
8c\J 8G\ 8C\	.	8gg\J 8ee\	.	.	.	.	.	.	.	.	8b/	e-	.	.	.	.
*	*	*	*	*v	*v	*	*	*	*	*	*	*	*	*	*	*
=46	=46	=46	=46	=46	=46	=46	=46	=46	=46	=46	=46	=46	=46	=46	=46
8C#X/ 8CC#X/	2ggg/ 2eee/	8aa#X\L 8gg\	.	2c#X\	-lei-	.	(2e\	-lei-	.	2a#X/	-lei-	.	2gg\	-lei-	.
!LO:TX:b:t=X:problem:odnośnik do poprawnie zapisanego akordu:color=blue	!	!	!	!	!	!	!	!	!	!	!	!	!	!	!
!LO:TX:a:t=P:problem:3 kropki	!	!	!	!	!	!	!	!	!	!	!	!	!	!	!
8e@'\L 8c#X@'\ 8A#X@'\ 8Gn@'\	.	8aa#\ 8gg\	.	.	.	.	.	.	.	.	.	.	.	.	.
8e@\ 8c#@\ 8A#@\ 8G@\	.	8aa#\ 8gg\	.	.	.	.	.	.	.	.	.	.	.	.	.
8e@\J 8c#@\ 8A#@\ 8G@\	.	8aa#\J 8gg\	.	.	.	.	.	.	.	.	.	.	.	.	.
*Xtremolo	*	*Xtremolo	*	*	*	*	*	*	*	*	*	*	*	*	*
!LO:TX:t=P:problem:mixed beam	!	!	!	!LO:TX:a:t=P:problem:comma.color=blue	!	!	!	!	!	!LO:TX:a:t=P:problem:comma.color=blue	!	!	!LO:TX:a:t=P:problem:comma.color=blue	!	!
8D/L 8DD/	4fff/ 4ddd/	8bb\L 8ff\	.	4.d\	-son,	.	[2d\)	.	.	(4b/	-son,	.	4ff\	-son,	.
!LO:TX:a:t=P:problem:w t. 46-48 zmazane nuty, jednak nadal dobrze widoczne. Niezakodowane w pliku	!	!	!	!	!	!	!	!	!	!	!	!	!	!	!
8d\	.	8bb\ 8ff\	.	.	.	.	.	.	.	.	.	.	.	.	.
8d\	4ddd/	8aa#\ 8ff\	.	.	.	.	.	.	.	4an/)	.	.	4dd\	e-	.
!LO:SIC:v:s=Cn	!	!	!	!	!	!	!	!	!	!	!	!	!	!	!
!LO:SIC:v:s=CCn	!	!	!	!	!	!	!	!	!	!	!	!	!	!	!
8C#/J 8CC#/	.	8aa#\J 8ff\	.	8cn\	e-	.	.	.	.	.	.	.	.	.	.
=47	=47	=47	=47	=47	=47	=47	=47	=47	=47	=47	=47	=47	=47	=47	=47
*	*	*tremolo	*	*	*	*	*	*	*	*	*	*	*	*	*
!	!	!	!	!	!	!	!	!	!	!	!	!	!LO:TX:a:t=P:problem:początkowo po "-lei" kropka, zasłonięta przedłużeniem dywizu, dopisanym niebieskim atramentem	!	!
8BB/ 8BBB/	2fff/ 2ddd/	8gg#X\L 8ff\	.	2B\	-lei-	.	2d\]	.	.	2g#X/	Ky-	.	2ff\	-lei-	.
*tremolo	*	*	*	*	*	*	*	*	*	*	*	*	*	*	*
!LO:TX:a:t=P:problem:3 kropki	!	!	!	!	!	!	!	!	!	!	!	!	!	!	!
8B'\L	.	8gg#\ 8ff\	.	.	.	.	.	.	.	.	.	.	.	.	.
8B\	.	8gg#\ 8ff\	.	.	.	.	.	.	.	.	.	.	.	.	.
8B\J	.	8gg#\J 8ff\	.	.	.	.	.	.	.	.	.	.	.	.	.
*Xtremolo	*	*Xtremolo	*	*	*	*	*	*	*	*	*	*	*	*	*
!LO:TX:t=P:problem:mixed beam	!	!	!	!LO:TX:a:t=P:problem:comma.color=blue	!	!	!LO:TX:a:t=P:problem:comma.color=blue	!	!	!	!	!	!LO:TX:a:t=P:problem:comma.color=blue	!	!
8C/L 8CC/	8eee/L	8aa\L 8ee\	.	(4.c\	-son,	.	[2c\	-son,	.	(4a/	-ri-	.	8ee\	-son,	.
8f\ 8c\ 8A\	8ccc/	8aa\J 8ee\	.	.	.	.	.	.	.	.	.	.	8r	.	.
8e\ 8c\	8aa/	4ryy	.	.	.	.	.	.	.	4gn/)	.	.	[4ee\	Ky-	.
8d\J 8B\	8ee/J	.	.	8B\)	.	.	.	.	.	.	.	.	.	.	.
*	*X8va	*	*	*	*	*	*	*	*	*	*	*	*	*	*
*	*v	*v	*	*	*	*	*	*	*	*	*	*	*	*	*
!!LO:LB:g=original
=48	=48	=48	=48	=48	=48	=48	=48	=48	=48	=48	=48	=48	=48	=48
*^	*^	*	*	*	*	*	*	*	*	*	*	*	*	*
!	!LO:TX:a:t=P:problem:łuk być może skreślony ołówkiem	!LO:TX:a:t=loco.	!	!	!	!	!LO:HP:a	!	!	!LO:DY:a	!	!	!LO:DY:a	!	!	!LO:DY:a
4c/	(4A\	(4ee/	2f\	>	4A\	Ky-	>	4c\]	.	>	2f/	-e	>	4ee\]	.	>
2ryy	8B\L	2dd/	.	.	8B\L	-ri-	.	2B\	e-	.	.	.	.	2dd\	-rie	.
.	8A\J	.	.	.	8A\J	.	.	.	.	.	.	.	.	.	.	.
.	4G\	.	2e\	.	4G\	-e	.	.	.	.	2e/	e-	.	.	.	.
!	!	!	!	!	!	!	!	!	!	!	!	!	!	!LO:ART:color=red	!	!
[4A/	8A\L	[<4cc/	.	.	8A\L	e-	.	[4A\	-lei-	.	.	.	.	[4cc^\	e-	.
.	8G\J	.	.	.	8G\J	.	.	.	.	.	.	.	.	.	.	.
=49	=49	=49	=49	=49	=49	=49	=49	=49	=49	=49	=49	=49	=49	=49	=49	=49
2A/]	4F\	2cc/]	1d\	.	(4F\	-lei-	.	2A\]	.	.	2.d/	-lei-	.	2cc\]	.	.
.	4F#X\	.	.	.	4F#X\	.	.	.	.	.	.	.	.	.	.	.
!	!LO:N:vis=2	!	!	!	!	!	!	!LO:TX:a:t=P:problem:comma.color=blue	!	!	!	!	!	!	!	!
2G/	8G\L	2b-X/	.	.	8G\L	.	.	2G/	-son,	]]	.	.	.	4.b-X\	-lei-	.
.	8Fn\	.	.	.	8Fn\J)	.	.	.	.	.	.	.	.	.	.	.
!	!	!	!	!	!LO:TX:a:t=P:problem:comma.color=blue	!	!	!	!	!	!LO:TX:a:t=P:problem:comma.color=blue	!	!	!	!	!
.	8E\	.	.	]]	8E\L	-son,	]]	.	.	.	4d/	-son,	]	.	.	.
!	!	!	!	!	!	!	!	!	!	!	!	!	!	!LO:TX:a:t=P:problem:comma.color=blue	!	!
.	8D\J	.	.	.	8D\J	.	.	.	.	.	.	.	.	8b-\	-son,	]]
=50	=50	=50	=50	=50	=50	=50	=50	=50	=50	=50	=50	=50	=50	=50	=50	=50
!	!	!	!	!	!	!	!LO:DY:a:rj	!	!	!LO:DY:a	!	!	!LO:DY:a:color=red	!	!	!LO:DY:a
2G/	2C#X\	[1a/	2e\	p	2C#X/	Ky-	p	(2G/	e-	p	(>2e/	e-	p	(2a\	e-	p
4F/	4D\	.	4d\	.	4D\	-rie	.	4F/	.	.	4d/	.	.	4ff\	.	.
4G/	4E\	.	4c#X\	.	4E\	e-	.	4G/)	.	.	4c#X/)	.	.	4ee\)	.	.
=51	=51	=51	=51	=51	=51	=51	=51	=51	=51	=51	=51	=51	=51	=51	=51	=51
!	!	!	!	!LO:HP:t=dim:color=red	!	!	!LO:HP:a:t=d:color=red	!	!	!LO:HP:a:t=d:color=red	!	!	!LO:HP:a:t=d:color=red	!	!	!LO:HP:a:t=dim:color=red
4A/	4F\	2a/]	1d\	>	(4F\	-lei-	>	(4A/	-lei-	>	(4d/	-lei-	>	2.dd\	-lei-	>
2c/	4F#X\	.	.	.	4F#X\)	.	.	2c\)	.	.	4a/)	.	.	.	.	.
!	!	!	!	!	!LO:TX:a:t=P:problem:comma.color=blue	!	!	!	!	!	!LO:TX:a:t=P:problem:comma.color=blue	!	!	!	!	!
.	4G\	4g/	.	.	(4G\	-son,	.	.	.	.	(4g/	-son,	.	.	.	.
!	!	!	!	!	!	!	!	!	!	!	!	!	!	!LO:TX:a:t=P:problem:comma.color=blue	!	!
!	!	!	!	!	!	!	!	!LO:TX:a:t=P:problem:comma.color=blue	!	!	!	!	!	!LO:TX:a:t=P:problem:we wszystkich głosach wokalnych początkowo po "-son" kropka, zmieniona na przecinek niebieskim atramentem	!	!
4B/	4G#X\	4f/	.	.	4G#X\)	.	.	4B\	-son,	.	4f/)	.	.	4dd\	-son,	.
*	*	*v	*v	*	*	*	*	*	*	*	*	*	*	*	*	*
=52	=52	=52	=52	=52	=52	=52	=52	=52	=52	=52	=52	=52	=52	=52	=52
!	!	!	!LO:DY:color=red	!	!	!LO:DY:a	!	!	!LO:DY:a	!	!	!LO:DY:a	!	!	!LO:DY:a
4c/	4A\)	4e/ 4c/)	pp	4.A\	Ky-	pp	4.c\	Ky-	pp	4.e/	Ky-	pp	4.cc\	Ky-	pp
4r	4ryy	4r	.	.	.	.	.	.	.	.	.	.	.	.	.
.	.	.	.	8A\	-ri-	.	8c\	-ri-	.	8e/	-ri-	.	8b\	-ri-	.
!	!	!	!	!LO:TX:a:t=P:problem:comma.color=blue	!	!	!LO:TX:a:t=P:problem:comma.color=blue	!	!	!LO:TX:a:t=P:problem:comma.color=blue	!	!	!LO:TX:a:t=P:problem:comma.color=blue	!	!
2r	2ryy	2r	.	2A\	-e,	.	2c\	-e,	.	2e/	-e,	.	2b\	-e,	.
*v	*v	*	*	*	*	*	*	*	*	*	*	*	*	*	*
!!LO:PB:g=original
=53	=53	=53	=53	=53	=53	=53	=53	=53	=53	=53	=53	=53	=53	=53
1r	1r	.	4.A\	Ky-	.	4.c\	Ky-	.	4.e/	Ky-	.	4.a/	Ky-	.
.	.	.	8A\	-ri-	.	8c\	-ri-	.	8e-X/	-ri-	.	8g/	-ri-	.
.	.	.	2A\	-e	.	2c\	-e	.	2e-/	-e	.	2g/	-e	.
=54	=54	=54	=54	=54	=54	=54	=54	=54	=54	=54	=54	=54	=54	=54
!	!	!	!	!	!	!	!	!	!	!	!	!	!	!LO:HP:b:color=blue
1r	1r	.	(4A\	e-	.	(4c\	e-	.	(>2.d/	e-	.	(>4f#X/	e-	<
!	!	!	!	!	!LO:HP:a:color=blue	!	!	!	!	!	!	!	!	!
.	.	.	4G\	.	<	4B\	.	.	.	.	.	4g/	.	.
.	.	.	4F#X\	.	.	4c\	.	.	.	.	.	4a/	.	.
.	.	.	4G\)	.	[[	4B\)	.	.	4e/)	.	.	4ee\)	.	[[
=55	=55	=55	=55	=55	=55	=55	=55	=55	=55	=55	=55	=55	=55	=55
!	!	!	!	!	!LO:HP:a:color=blue	!	!	!	!	!	!	!	!	!LO:HP:b:color=blue
1r	1r	.	2G\	-lei-	>	2c\	-lei-	.	1fn/	-lei-	.	1dd\	-lei-	>]]
!	!	!	!LO:TX:a:t=P:problem:dot.color=red	!	!	!LO:TX:a:t=P:problem:comma.color=blue	!	!	!	!	!	!	!	!
.	.	.	4.GG/	-son.	.	4.B\	-son,	.	.	.	.	.	.	.
.	.	.	.	.	]	.	.	.	.	.	.	.	.	.
.	.	.	8rZ	.	.	8r	.	.	.	.	.	.	.	.
=56	=56	=56	=56	=56	=56	=56	=56	=56	=56	=56	=56	=56	=56	=56
!	!	!	!LO:ART:color=red	!	!LO:DY:b:color=red:rj	!	!	!LO:DY:a:rj:color=blue	!LO:TX:a:t=P:problem:comma.color=blue	!	!	!LO:TX:a:t=P:problem:comma.color=blue	!	!
!LO:ART:color=red	!	!LO:DY:rj	!	!	!LO:HP:a:color=blue	!	!	!	!	!	!	!	!	!
(4..C^/	8r	pp	4..C^/	Ky-	pp <	2G/	Ky-	pp	4e/	-son,	.	4cc\	-son,	.
*	*tremolo	*	*	*	*	*	*	*	*	*	*	*	*	*
!	!LO:TX:a:t=P:problem:3 kropki	!	!	!	!	!	!	!	!	!	!	!	!	!
.	8e'/L 8G'/	.	.	.	.	.	.	.	.	.	.	.	.	.
.	8e/ 8G/	.	.	.	.	.	.	.	4r	.	.	4r	.	.
.	8e/J 8G/	.	.	.	.	.	.	.	.	.	.	.	.	.
16BB/)	.	.	16BB/	-rie	.	.	.	.	.	.	.	.	.	.
!	!LO:TX:a:t=P:problem:4 kropki	!	!	!	!LO:HP:a:color=blue	!	!	!	!	!	!	!	!	!
2BB/	8e'/L 8G'/	.	2BB/	.	[ > ]]	4.e\	-rie	.	2r	.	.	2r	.	.
.	8e/ 8G/	.	.	.	.	.	.	.	.	.	.	.	.	.
.	8e/ 8G/	.	.	.	.	.	.	.	.	.	.	.	.	.
.	8e/J 8G/	.	.	.	.	8d\	e-	.	.	.	.	.	.	.
=57	=57	=57	=57	=57	=57	=57	=57	=57	=57	=57	=57	=57	=57	=57
!LO:ART:color=red	!LO:TX:a:t=P:problem:4 kropki	!	!LO:ART:color=blue	!	!	!	!	!	!	!	!	!	!	!
(4..BB-X^/	8e'/L 8d'/ 8G'/	.	4..BB-X^>/	Ky-	.	2d\	-lei-	.	2r	.	.	2r	.	.
.	8e/ 8d/ 8G/	.	.	.	.	.	.	.	.	.	.	.	.	.
.	8e/ 8d/ 8G/	.	.	.	.	.	.	.	.	.	.	.	.	.
.	8e/J 8d/ 8G/	.	.	.	.	.	.	.	.	.	.	.	.	.
16AA/)	.	.	16AA/	-rie	.	.	.	.	.	.	.	.	.	.
!	!LO:TX:a:t=P:problem:4 kropki	!	!	!	!	!LO:TX:a:t=P:problem:comma.color=blue	!	!	!	!	!LO:DY:b:color=red	!	!	!LO:DY:b:color=red
[2AA/	8e'/L 8c#X'/ 8G'/	.	[2AA/	.	.	4c#X\	-son,	.	4r	.	pp	4r	.	pp
.	8e/ 8c#/ 8G/	.	.	.	.	.	.	.	.	.	.	.	.	.
!	!	!	!	!	!	!	!	!	!	!	!LO:HP:b:color=blue	!	!	!LO:HP:a:color=red
.	8e/ 8c#/ 8G/	.	.	.	.	4r	.	.	4e/	e-	<[[	4e/	e-	<[[
.	8e/J 8c#/ 8G/	.	.	.	.	.	.	.	.	.	.	.	.	.
!!LO:LB:g=original
=58	=58	=58	=58	=58	=58	=58	=58	=58	=58	=58	=58	=58	=58	=58
!	!	!	!	!	!	!	!	!	!LO:ART:color=red	!	!LO:HP:b:color=blue	!LO:ART:color=red	!	!LO:HP:a:color=red
2AA\] 2AAA\	8e-X/L 8cn/ 8G</	.	4AA/]	.	.	2r	.	.	2g^>/	-lei-	>	4.e-X^>/	-le-	>
.	8e-/ 8c/ 8G/	.	.	.	.	.	.	.	.	.	.	.	.	.
.	8e-/ 8c/ 8G/	.	4r	.	.	.	.	.	.	.	.	.	.	.
.	8e-/J 8c/ 8G/	.	.	.	.	.	.	.	.	.	.	8d/	-i-	.
!	!	!LO:HP:color=blue	!	!	!	!	!	!	!LO:TX:a:t=P:problem:comma.color=blue	!	!	!LO:TX:a:t=P:problem:comma.color=blue	!	!
(4..AA-X\ 4..AAA-X\	8d/L 8c/ 8F#X</	<	4..AA-X/	Ky-	.	4r	.	.	4c/	-son,	]	4c/	-son,	]
.	8d/ 8c/ 8F#/	.	.	.	.	.	.	.	.	.	.	.	.	.
!	!	!	!	!	!	!	!	!LO:HP:a:color=blue	!	!	!	!	!	!
.	8d/ 8c/ 8F#/	.	.	.	.	4d\	e-	<	4d/	e-	.	4r	.	.
.	8d/J 8c/ 8F#/	.	.	.	.	.	.	.	.	.	.	.	.	.
16GG\ 16GGG\)	.	.	16GG/	-ri-	.	.	.	.	.	.	.	.	.	.
=59	=59	=59	=59	=59	=59	=59	=59	=59	=59	=59	=59	=59	=59	=59
!	!LO:TX:a:t=P:problem:4 kropki	!	!	!	!	!	!	!	!	!	!	!	!	!
2GG\ 2GGG\	8e'/L 8c'/ 8G<'/	[	4GG/	-e	.	4..c\	-le-	[	2.e/	-le-	.	4r	.	.
!	!	!LO:HP:color=blue	!	!	!	!	!	!	!	!	!	!	!	!
.	8e/ 8c/ 8G/	>	.	.	.	.	.	.	.	.	.	.	.	.
.	8e/ 8c/ 8G/	.	4GG/	e-	.	.	.	.	.	.	.	8.r	.	.
.	8e/J 8c/ 8G/	.	.	.	.	.	.	.	.	.	.	.	.	.
*	*Xtremolo	*	*	*	*	*	*	*	*	*	*	*	*	*
!	!	!	!	!	!	!	!	!LO:HP:a:color=blue	!	!	!	!	!	!LO:HP:a:color=red
.	.	.	.	.	.	16B\	-i-	>	.	.	.	16g/	e-	<[
!LO:S:color=red	!	!	!	!	!	!	!	!	!	!	!	!LO:ART:color=red	!	!LO:HP:a:color=red
(<4GG\	8e/L 8B/ 8G</	.	4.GG/	-le-	.	4B\	-son,	.	.	.	.	4.g^>/	-le-	>
.	8e/J 8B/ 8G</	]	.	.	.	.	.	.	.	.	.	.	.	.
4GG\	8d/L 8B/ 8F</	.	.	.	.	4G/	e-	]]	4d/	-i-	.	.	.	.
.	8d/J 8B/ 8F</	.	8GG/	-i-	.	.	.	.	.	.	.	8B/	-i-	]]
=60	=60	=60	=60	=60	=60	=60	=60	=60	=60	=60	=60	=60	=60	=60
*^	*	*	*	*	*	*	*	*	*	*	*	*	*	*
4E/	8CC\L)	(4.c/	.	[1C/	-son.	.	1c/	-lei-	.	[1c/	-son.	.	[1c/	-son.	.
.	8C\|	.	.	.	.	.	.	.	.	.	.	.	.	.	.
4r@	8GG\|	.	.	.	.	.	.	.	.	.	.	.	.	.	.
.	8EE\J|	8g/	.	.	.	.	.	.	.	.	.	.	.	.	.
!	!LO:TX:a:t=P:problem:ta i kolejna ćwierćnuta 4\right	!	!	!	!	!	!	!	!	!	!	!	!	!	!
!	!LO:TX:a:t=P:problem:stem.color=blue	!	!	!	!	!	!	!	!	!	!	!	!	!	!
4r@	4CC\|	4e/)	.	.	.	.	.	.	.	.	.	.	.	.	.
!	!LO:TX:a:t=P:problem:stem.color=blue	!	!	!	!	!	!	!	!	!	!	!	!	!	!
4ryy	4CC\|	4G<'</ 4E<'</	.	.	.	.	.	.	.	.	.	.	.	.	.
*v	*v	*	*	*	*	*	*	*	*	*	*	*	*	*	*
=61	=61	=61	=61	=61	=61	=61	=61	=61	=61	=61	=61	=61	=61	=61
1CC/;<	1c</ 1G</ 1E</;	.	4C/]	.	.	4C/	-son.	.	4c/]	.	.	4c/]	.	.
*	*	*	*	*	*	*X8ba	*	*	*	*	*	*	*	*
.	.	.	4r	.	.	4r	.	.	4r	.	.	4r	.	.
.	.	.	2r;	.	.	2r;	.	.	2r;	.	.	2r;	.	.
==	==	==	==	==	==	==	==	==	==	==	==	==	==	==
*-	*-	*-	*-	*-	*-	*-	*-	*-	*-	*-	*-	*-	*-	*-
!!!system-decoration: [(s1,s2,s3,s4)][(s5,s6)]
!!!RDF**kern: > = above
!!!RDF**kern: < = below
!!!RDF**kern: @ = marked note, color=blue
!!!RDF**kern: Z = marked note, color=red
!!!RDF**kern: | = vertical stroke
!!!RDF**kern: N = linked
!!!AIN: 1 alto 2 empty 1 forte 1 soprn 1 tenor
!!!ENC: Marcin Jachim
!!!END: 2021-07-08
